!!!!SEGMENT: pl-wn--mus-iii-65-947-cim--002_sowinski-wojciech--swiety-wojciech-meczennik-no-2-recitativo-i-arja.krn
!!!cenid: 18xx:3595
!!!COM: Sowiński, Wojciech
!!!COM-rismID: pe30008543
!!!CDT: ~1803-1880/03/05
!!!CNT:
!!!GTL: Święty Wojciech męczennik
!!!OTL: No. 2. Recitativo i arja
!!!OMV: 002
!!!PDT: 1877
!!!AGN:
!!!SMS-siglum: PL-Wn
!!!SMS-shelfmark: Mus.III.65.947 Cim.
!!!SMS-shelfwork: 001-002 G
!!!SMS-variant:
!!!SMS-altvar:
!!!NIFC-rismSourceID:
!!!NIFC-rismChildID:
!!!NIFC-islandoraID: none
!!!URL-pdf-islandora:
!!!URL-scan: https://polona.pl/item/swiety-wojciech-meczennik-oratorjo-w-trzech-czesciach-dzielo-66-spiew-z-fortepianem,MTkzODI1Mzc/242/#item @EN{Scan on Polona} @PL{Skany w portalu Polona}
!!!IIIF: https://polona.pl/iiif/item/MTkzODI1Mzc/manifest.js
!!!ONB-nifc: UWAGA: oratorium zawiera w źródle 28 numerów podzielonych na 30 plików (rozdzielenie w No. 6 - osobno Recitativo oraz Aria matki i No. 10 - osobno Recitativo, arja i chór oraz Sen). Polecam widok miniatur na Polonie. Uwaga co do obsady: prosimy umieszczać tylko partie występujące w danym numerze (nie całą obsadę oratorium)
!!!AIN: 1 alto 1 bass 2 piano 2 soprn 1 tenor
!!!key: b
**kern	**kern	**dynam	**kern	**text	**dynam	**kern	**text	**dynam	**kern	**text	**dynam	**kern	**text	**dynam	**kern	**text	**dynam
*part7	*part6	*part6	*part5	*part5	*part5	*part4	*part4	*part4	*part3	*part3	*part3	*part2	*part2	*part2	*part1	*part1	*part1
*staff7	*staff6	*	*staff5	*staff5	*	*staff4	*staff4	*	*staff3	*staff3	*	*staff2	*staff2	*	*staff1	*staff1	*
*I"Piano	*I"Piano	*	*I"Basso	*	*	*I"Tenore	*	*	*I"Alto	*	*	*I"Soprano	*	*	*I"Sopran Solo	*	*
*I'P-no	*I'pf	*	*I'B.	*	*	*I'T.	*	*	*I'A.	*	*	*I'S.	*	*	*I'S s	*	*
*Ipiano	*Ipiano	*	*Ibass	*	*	*Itenor	*	*	*Ialto	*	*	*Isoprn	*	*	*Isoprn	*	*
*ICklav	*ICklav	*	*ICvox	*	*	*ICvox	*	*	*ICvox	*	*	*ICvox	*	*	*ICvox	*	*
*clefF4	*clefG2	*	*clefF4	*	*	*clefGv2	*	*	*clefG2	*	*	*clefG2	*	*	*clefG2	*	*
*k[f#c#]	*k[f#c#]	*	*k[f#c#]	*	*	*k[f#c#]	*	*	*k[f#c#]	*	*	*k[f#c#]	*	*	*k[f#c#]	*	*
*b:	*b:	*	*b:	*	*	*b:	*	*	*b:	*	*	*b:	*	*	*b:	*	*
*M4/4	*M4/4	*	*M4/4	*	*	*M4/4	*	*	*M4/4	*	*	*M4/4	*	*	*M4/4	*	*
*met(c)	*met(c)	*	*met(c)	*	*	*met(c)	*	*	*met(c)	*	*	*met(c)	*	*	*met(c)	*	*
*	*	*	*	*	*	*	*	*	*	*	*	*	*	*	*xywh-#28:368,463,1977,322	*	*
*xywh-#28:379,691,1891,397	*xywh-#28:379,691,1891,397	*	*	*	*	*	*	*	*	*	*	*	*	*	*	*	*
4D\ 4d	4f#/ 4a 4dd	p	2ryy	.	.	2ryy	.	.	2ryy	.	.	2ryy	.	.	4r	.	.
!	!	!	!	!	!	!	!	!	!	!	!	!	!	!	!LO:TX:a:t=AZAEL	!	!
4r	4r	.	.	.	.	.	.	.	.	.	.	.	.	.	8a/	Tak	.
.	.	.	.	.	.	.	.	.	.	.	.	.	.	.	8a/	przed	.
=1	=1	=1	=1	=1	=1	=1	=1	=1	=1	=1	=1	=1	=1	=1	=1	=1	=1
1r	1r	.	1ryy	.	.	1ryy	.	.	1ryy	.	.	1ryy	.	.	4dd\	nim	.
!	!	!	!	!	!	!	!	!	!	!	!	!	!	!	!LO:TX:a:t=Recit.	!	!
.	.	.	.	.	.	.	.	.	.	.	.	.	.	.	(8a/L	śpie-	.
.	.	.	.	.	.	.	.	.	.	.	.	.	.	.	8g/J)	.	.
.	.	.	.	.	.	.	.	.	.	.	.	.	.	.	4f#/	-wa	.
.	.	.	.	.	.	.	.	.	.	.	.	.	.	.	8f#/	ar-	.
.	.	.	.	.	.	.	.	.	.	.	.	.	.	.	8g/	-cha-	.
=2	=2	=2	=2	=2	=2	=2	=2	=2	=2	=2	=2	=2	=2	=2	=2	=2	=2
2r	2r	.	1ryy	.	.	1ryy	.	.	1ryy	.	.	1ryy	.	.	(6b/	-ni-	.
.	.	.	.	.	.	.	.	.	.	.	.	.	.	.	12a/)	.	.
.	.	.	.	.	.	.	.	.	.	.	.	.	.	.	4a/	-łów	.
2D\ 2G#X 2B	2f#/	.	.	.	.	.	.	.	.	.	.	.	.	.	2ff#^\	gro-	.
=3	=3	=3	=3	=3	=3	=3	=3	=3	=3	=3	=3	=3	=3	=3	=3	=3	=3
4C#\ 4A	4e/	.	1ryy	.	.	1ryy	.	.	1ryy	.	.	1ryy	.	.	2ee\	-no,	.
4r	4r	.	.	.	.	.	.	.	.	.	.	.	.	.	.	.	.
4FF#\	4F#/ 4A 4c#	.	.	.	.	.	.	.	.	.	.	.	.	.	4.cc#\	I	.
4r	4r	.	.	.	.	.	.	.	.	.	.	.	.	.	.	.	.
!LO:LB:g=original	!LO:LB:g=original	!	!	!	!	!	!	!	!	!	!	!	!	!	!	!	!
.	.	.	.	.	.	.	.	.	.	.	.	.	.	.	8cc#\	sło-	.
!	!	!	!	!	!	!	!	!	!	!	!	!	!	!	!LO:LB:g=original	!	!
=4	=4	=4	=4	=4	=4	=4	=4	=4	=4	=4	=4	=4	=4	=4	=4	=4	=4
*	*	*	*	*	*	*	*	*	*	*	*	*	*	*	*xywh-#28:336,989,1971,305	*	*
*xywh-#28:287,1201,2007,415	*xywh-#28:287,1201,2007,415	*	*	*	*	*	*	*	*	*	*	*	*	*	*	*	*
(2BB\	(2F#/ 2B 2d	.	1ryy	.	.	1ryy	.	.	1ryy	.	.	1ryy	.	.	4.dd\	-necz-	.
.	.	.	.	.	.	.	.	.	.	.	.	.	.	.	8dd\	-nych	.
4EE\ 4E	4A/ 4c#	<	.	.	.	.	.	.	.	.	.	.	.	.	4cc#\	sło-	.
4EE\ 4E	4G#X/ 4e	[	.	.	.	.	.	.	.	.	.	.	.	.	8.b\	-necz-	.
.	.	.	.	.	.	.	.	.	.	.	.	.	.	.	16b\	-nych	.
=5	=5	=5	=5	=5	=5	=5	=5	=5	=5	=5	=5	=5	=5	=5	=5	=5	=5
4AA/)	4A/) 4c#	.	1ryy	.	.	1ryy	.	.	1ryy	.	.	1ryy	.	.	2a\	gwiazd	.
8C#/L	4r	>	.	.	.	.	.	.	.	.	.	.	.	.	.	.	.
8BB/J	.	.	.	.	.	.	.	.	.	.	.	.	.	.	.	.	.
8D/L	2r	]	.	.	.	.	.	.	.	.	.	.	.	.	4r	.	.
8C#/J	.	.	.	.	.	.	.	.	.	.	.	.	.	.	.	.	.
4AA/	.	.	.	.	.	.	.	.	.	.	.	.	.	.	(8a/L	Nad	.
.	.	.	.	.	.	.	.	.	.	.	.	.	.	.	8b/J)	.	.
=6	=6	=6	=6	=6	=6	=6	=6	=6	=6	=6	=6	=6	=6	=6	=6	=6	=6
(4.A^\	4r	.	1ryy	.	.	1ryy	.	.	1ryy	.	.	1ryy	.	.	4.ccn\	mdłą	.
.	4cn/ 4a	.	.	.	.	.	.	.	.	.	.	.	.	.	.	.	.
8Fn\	.	.	.	.	.	.	.	.	.	.	.	.	.	.	8dd\	dzie-	.
4E\	2e/ 2g#X	.	.	.	.	.	.	.	.	.	.	.	.	.	4ee\	-ci-	.
4D\	.	.	.	.	.	.	.	.	.	.	.	.	.	.	4ee\	-ną,	.
=7	=7	=7	=7	=7	=7	=7	=7	=7	=7	=7	=7	=7	=7	=7	=7	=7	=7
2C#X\)	2B-X/ 2e 2gn	.	1ryy	.	.	1ryy	.	.	1ryy	.	.	1ryy	.	.	8ee\	z cze-	.
.	.	.	.	.	.	.	.	.	.	.	.	.	.	.	8g/	-skiej	.
.	.	.	.	.	.	.	.	.	.	.	.	.	.	.	(4b-X/	krwi	.
4r	4r	.	.	.	.	.	.	.	.	.	.	.	.	.	4.a/)	.	.
4C#\	4G/ 4A 4e	.	.	.	.	.	.	.	.	.	.	.	.	.	.	.	.
!LO:LB:g=original	!LO:LB:g=original	!	!	!	!	!	!	!	!	!	!	!	!	!	!	!	!
.	.	.	.	.	.	.	.	.	.	.	.	.	.	.	8f#/	zro-	.
!	!	!	!	!	!	!	!	!	!	!	!	!	!	!	!LO:LB:g=original	!	!
=8	=8	=8	=8	=8	=8	=8	=8	=8	=8	=8	=8	=8	=8	=8	=8	=8	=8
*	*	*	*	*	*	*	*	*	*	*	*	*	*	*	*xywh-#28:305,1545,1951,266	*	*
*xywh-#28:276,1748,2043,418	*xywh-#28:276,1748,2043,418	*	*	*	*	*	*	*	*	*	*	*	*	*	*	*	*
8D/L	8Fn/L 8A 8d	.	1ryy	.	.	1ryy	.	.	1ryy	.	.	1ryy	.	.	4g/	-dzo-	.
8D/	(8d/	.	.	.	.	.	.	.	.	.	.	.	.	.	.	.	.
8AA/	8fn/	.	.	.	.	.	.	.	.	.	.	.	.	.	4fn/	-ną.	.
8FFn/J	8a/J)	.	.	.	.	.	.	.	.	.	.	.	.	.	.	.	.
4DD/	4dd\	.	.	.	.	.	.	.	.	.	.	.	.	.	4r	.	.
4r	4r	.	.	.	.	.	.	.	.	.	.	.	.	.	8.a/	Wśród	.
.	.	.	.	.	.	.	.	.	.	.	.	.	.	.	16a/	sło-	.
=9	=9	=9	=9	=9	=9	=9	=9	=9	=9	=9	=9	=9	=9	=9	=9	=9	=9
4r	4r	.	1ryy	.	.	1ryy	.	.	1ryy	.	.	1ryy	.	.	2dd\	-wiań-	.
4DD/ 4D	4d/ 4fn 4a 4dd	.	.	.	.	.	.	.	.	.	.	.	.	.	.	.	.
4BBB-X/ 4BB-X	4d/ 4f 4b-X 4dd	.	.	.	.	.	.	.	.	.	.	.	.	.	4ryy	.	.
4r	4r	.	.	.	.	.	.	.	.	.	.	.	.	.	8.dd\	-skich	.
.	.	.	.	.	.	.	.	.	.	.	.	.	.	.	16dd\	sło-	.
=10	=10	=10	=10	=10	=10	=10	=10	=10	=10	=10	=10	=10	=10	=10	=10	=10	=10
8qFFFn/	.	.	.	.	.	.	.	.	.	.	.	.	.	.	.	.	.
8FFn/L	[2fn\ [2a [2ffn	.	1ryy	.	.	1ryy	.	.	1ryy	.	.	1ryy	.	.	4.ff#\	-wiań-	.
16GG/L	.	.	.	.	.	.	.	.	.	.	.	.	.	.	.	.	.
16AA/JJ	.	.	.	.	.	.	.	.	.	.	.	.	.	.	.	.	.
16BB-X/LL	.	.	.	.	.	.	.	.	.	.	.	.	.	.	.	.	.
16Cn/	.	.	.	.	.	.	.	.	.	.	.	.	.	.	.	.	.
16D/	.	.	.	.	.	.	.	.	.	.	.	.	.	.	8ff#\	-skich	.
16E/JJ	.	.	.	.	.	.	.	.	.	.	.	.	.	.	.	.	.
4Fn\	4f\] 4a] 4ff]	.	.	.	.	.	.	.	.	.	.	.	.	.	4cc#\	miast.	.
!	!LO:TX:b:t=Corni	!	!	!	!	!	!	!	!	!	!	!	!	!	!	!	!
4r	8.A/L 8.a	.	.	.	.	.	.	.	.	.	.	.	.	.	4r	.	.
.	16A/Jk 16a	.	.	.	.	.	.	.	.	.	.	.	.	.	.	.	.
=11	=11	=11	=11	=11	=11	=11	=11	=11	=11	=11	=11	=11	=11	=11	=11	=11	=11
*^	*	*	*	*	*	*	*	*	*	*	*	*	*	*	*	*	*
2E^/ 2G	1FF#	4A/ 4a	.	1ryy	.	.	1ryy	.	.	1ryy	.	.	1ryy	.	.	1r	.	.
.	.	8.A/L 8.a	.	.	.	.	.	.	.	.	.	.	.	.	.	.	.	.
.	.	16A/Jk 16a	.	.	.	.	.	.	.	.	.	.	.	.	.	.	.	.
2D^/ 2Fn	.	4A/ 4a	.	.	.	.	.	.	.	.	.	.	.	.	.	.	.	.
.	.	8.A/L 8.a	.	.	.	.	.	.	.	.	.	.	.	.	.	.	.	.
.	.	16A/Jk 16a	.	.	.	.	.	.	.	.	.	.	.	.	.	.	.	.
=12	=12	=12	=12	=12	=12	=12	=12	=12	=12	=12	=12	=12	=12	=12	=12	=12	=12	=12
2C#^/ 2E	1FF#	4A/ 4a	.	1ryy	.	.	1ryy	.	.	1ryy	.	.	1ryy	.	.	1r	.	.
!	!	!	!	!	!	!	!	!	!	!	!	!	!	!	!	!LO:LB:g=original	!	!
.	.	8.A/L 8.a	.	.	.	.	.	.	.	.	.	.	.	.	.	.	.	.
.	.	16A/Jk 16a	.	.	.	.	.	.	.	.	.	.	.	.	.	.	.	.
4BB^/ 4D	.	4A/ 4a	.	.	.	.	.	.	.	.	.	.	.	.	.	.	.	.
4AA/ 4C#	.	8.A/L 8.a	.	.	.	.	.	.	.	.	.	.	.	.	.	.	.	.
.	.	16A/Jk 16a	.	.	.	.	.	.	.	.	.	.	.	.	.	.	.	.
!LO:LB:g=originalLO:LB:g=original	!	!LO:LB:g=original	!	!	!	!	!	!	!	!	!	!	!	!	!	!	!	!
*v	*v	*	*	*	*	*	*	*	*	*	*	*	*	*	*	*	*	*
*	*	*	*	*	*	*	*	*	*	*	*	*	*	*	*clefF4	*	*
=13||	=13||	=13||	=13||	=13||	=13||	=13||	=13||	=13||	=13||	=13||	=13||	=13||	=13||	=13||	=13||	=13||	=13||
*M4/4	*M4/4	*	*M4/4	*	*	*M4/4	*	*	*M4/4	*	*	*M4/4	*	*	*M4/4	*	*
*met(c)	*met(c)	*	*met(c)	*	*	*met(c)	*	*	*met(c)	*	*	*met(c)	*	*	*met(c)	*	*
*	*	*	*	*	*	*	*	*	*	*	*	*	*	*	*xywh-#28:322,2053,1912,279	*	*
*xywh-#28:283,2211,1951,464	*xywh-#28:283,2211,1951,464	*	*	*	*	*	*	*	*	*	*	*	*	*	*	*	*
!	!	!	!	!	!	!	!	!	!	!	!	!	!	!	!LO:TX:a:t=GŁOS Z OŁTARZA,	!	!
!	!	!	!	!	!	!	!	!	!	!	!	!	!	!	!LO:TX:a:t=ARJA.	!	!
!	!	!	!	!	!	!	!	!	!	!	!	!	!	!	!LO:TX:a:t=Moderato	!	!
4.DD/ 4.D	4.d/ 4.f# 4.dd	.	1ryy	.	.	1ryy	.	.	1ryy	.	.	1ryy	.	.	1r	.	.
!LO:TX:t=P:problem=klamra łukowa	!LO:TX:t=P:problem=klamra łukowa	!	!	!	!	!	!	!	!	!	!	!	!	!	!	!	!
24AA/LL	24A/LL	.	.	.	.	.	.	.	.	.	.	.	.	.	.	.	.
24BB/	24B/	.	.	.	.	.	.	.	.	.	.	.	.	.	.	.	.
24C#/JJ	24c#/JJ	.	.	.	.	.	.	.	.	.	.	.	.	.	.	.	.
4D^\	4d^/	.	.	.	.	.	.	.	.	.	.	.	.	.	.	.	.
4E^\	4e^/	.	.	.	.	.	.	.	.	.	.	.	.	.	.	.	.
=14	=14	=14	=14	=14	=14	=14	=14	=14	=14	=14	=14	=14	=14	=14	=14	=14	=14
4F#^\	4f#^/	.	1ryy	.	.	1ryy	.	.	1ryy	.	.	1ryy	.	.	1r	.	.
!	!LO:TX:a:t=Clari&colon;	!	!	!	!	!	!	!	!	!	!	!	!	!	!	!	!
8.f#\L	8.a/L 8.dd	p	.	.	.	.	.	.	.	.	.	.	.	.	.	.	.
16f#\Jk	16a/Jk 16dd	.	.	.	.	.	.	.	.	.	.	.	.	.	.	.	.
4f#\	4a/ 4dd	.	.	.	.	.	.	.	.	.	.	.	.	.	.	.	.
4f#\	4a/ 4dd	.	.	.	.	.	.	.	.	.	.	.	.	.	.	.	.
=15	=15	=15	=15	=15	=15	=15	=15	=15	=15	=15	=15	=15	=15	=15	=15	=15	=15
*tremolo	*tremolo	*	*	*	*	*	*	*	*	*	*	*	*	*	*	*	*
4.DD/ 4.D	16fn/LL 16g#X 16dd	f	1ryy	.	.	1ryy	.	.	1ryy	.	.	1ryy	.	.	1r	.	.
.	16d/	.	.	.	.	.	.	.	.	.	.	.	.	.	.	.	.
.	16f/ 16g# 16dd	.	.	.	.	.	.	.	.	.	.	.	.	.	.	.	.
.	16d/	.	.	.	.	.	.	.	.	.	.	.	.	.	.	.	.
.	16f/ 16g# 16dd	.	.	.	.	.	.	.	.	.	.	.	.	.	.	.	.
.	16d/	.	.	.	.	.	.	.	.	.	.	.	.	.	.	.	.
16BB/LL	16f/ 16g# 16dd	.	.	.	.	.	.	.	.	.	.	.	.	.	.	.	.
16C#/JJ	16d/JJ	.	.	.	.	.	.	.	.	.	.	.	.	.	.	.	.
4D^\	16f/LL 16g# 16dd	.	.	.	.	.	.	.	.	.	.	.	.	.	.	.	.
.	16d/	.	.	.	.	.	.	.	.	.	.	.	.	.	.	.	.
.	16f/ 16g# 16dd	.	.	.	.	.	.	.	.	.	.	.	.	.	.	.	.
.	16d/	.	.	.	.	.	.	.	.	.	.	.	.	.	.	.	.
4E^\	16f/ 16g# 16dd	.	.	.	.	.	.	.	.	.	.	.	.	.	.	.	.
.	16d/	.	.	.	.	.	.	.	.	.	.	.	.	.	.	.	.
.	16f/ 16g# 16dd	.	.	.	.	.	.	.	.	.	.	.	.	.	.	.	.
.	16d/JJ	.	.	.	.	.	.	.	.	.	.	.	.	.	.	.	.
=16	=16	=16	=16	=16	=16	=16	=16	=16	=16	=16	=16	=16	=16	=16	=16	=16	=16
4Fn\	4d/ 4g#X 4dd	.	1ryy	.	.	1ryy	.	.	1ryy	.	.	1ryy	.	.	1r	.	.
!	!	!	!	!	!	!	!	!	!	!	!	!	!	!	!	!LO:LB:g=original	!
8.fn\L	8.g#/L 8.b 8.dd	sf	.	.	.	.	.	.	.	.	.	.	.	.	.	.	.
16f\Jk	16g#/Jk 16b 16dd	.	.	.	.	.	.	.	.	.	.	.	.	.	.	.	.
4f\	4g#/ 4b 4dd	.	.	.	.	.	.	.	.	.	.	.	.	.	.	.	.
4f\	4f#/ 4b 4dd	.	.	.	.	.	.	.	.	.	.	.	.	.	.	.	.
!LO:LB:g=original	!LO:LB:g=original	!	!	!	!	!	!	!	!	!	!	!	!	!	!	!	!
=17	=17	=17	=17	=17	=17	=17	=17	=17	=17	=17	=17	=17	=17	=17	=17	=17	=17
*	*	*	*	*	*	*	*	*	*	*	*	*	*	*	*xywh-#28:265,2607,1961,222	*	*
*xywh-#28:260,2744,1937,463	*xywh-#28:260,2744,1937,463	*	*	*	*	*	*	*	*	*	*	*	*	*	*	*	*
4.DD/ 4.D	16gn/LL 16b-X 16ee	.	1ryy	.	.	1ryy	.	.	1ryy	.	.	1ryy	.	.	1r	.	.
.	16e/	.	.	.	.	.	.	.	.	.	.	.	.	.	.	.	.
.	16gn/ 16b- 16ee	.	.	.	.	.	.	.	.	.	.	.	.	.	.	.	.
.	16e/	.	.	.	.	.	.	.	.	.	.	.	.	.	.	.	.
.	16gn/ 16b- 16ee	.	.	.	.	.	.	.	.	.	.	.	.	.	.	.	.
.	16e/	.	.	.	.	.	.	.	.	.	.	.	.	.	.	.	.
16C#\LL	16gn/ 16b- 16ee	.	.	.	.	.	.	.	.	.	.	.	.	.	.	.	.
16D\JJ	16e/JJ	.	.	.	.	.	.	.	.	.	.	.	.	.	.	.	.
4E^\	16gn/LL 16b- 16ee	.	.	.	.	.	.	.	.	.	.	.	.	.	.	.	.
.	16e/	.	.	.	.	.	.	.	.	.	.	.	.	.	.	.	.
.	16gn/ 16b- 16ee	.	.	.	.	.	.	.	.	.	.	.	.	.	.	.	.
.	16e/	.	.	.	.	.	.	.	.	.	.	.	.	.	.	.	.
4Fn^\	16gn/ 16b- 16ee	.	.	.	.	.	.	.	.	.	.	.	.	.	.	.	.
.	16e/	.	.	.	.	.	.	.	.	.	.	.	.	.	.	.	.
.	16gn/ 16b- 16ee	.	.	.	.	.	.	.	.	.	.	.	.	.	.	.	.
.	16e/JJ	.	.	.	.	.	.	.	.	.	.	.	.	.	.	.	.
=18	=18	=18	=18	=18	=18	=18	=18	=18	=18	=18	=18	=18	=18	=18	=18	=18	=18
4G^\	4e/ 4b-X 4ee	<	1ryy	.	.	1ryy	.	.	1ryy	.	.	1ryy	.	.	1r	.	.
8.c#X\L	8.e/L 8.g 8.b- 8.ee	.	.	.	.	.	.	.	.	.	.	.	.	.	.	.	.
16c#\Jk	16e/Jk 16g 16b- 16ee	.	.	.	.	.	.	.	.	.	.	.	.	.	.	.	.
4c#\	4e/ 4g 4b- 4ee	.	.	.	.	.	.	.	.	.	.	.	.	.	.	.	.
4c#\	4e/ 4g 4b- 4ee	[	.	.	.	.	.	.	.	.	.	.	.	.	.	.	.
=19	=19	=19	=19	=19	=19	=19	=19	=19	=19	=19	=19	=19	=19	=19	=19	=19	=19
(8qDD/	.	.	.	.	.	.	.	.	.	.	.	.	.	.	.	.	.
[4D^\)	16a\LL 16dd 16ffn	.	1ryy	.	.	1ryy	.	.	1ryy	.	.	1ryy	.	.	1r	.	.
.	16fn\	.	.	.	.	.	.	.	.	.	.	.	.	.	.	.	.
.	16a\ 16dd 16ff	.	.	.	.	.	.	.	.	.	.	.	.	.	.	.	.
.	16f\	.	.	.	.	.	.	.	.	.	.	.	.	.	.	.	.
16D\LL]	16a\ 16dd 16ff	.	.	.	.	.	.	.	.	.	.	.	.	.	.	.	.
(32E\L	16f\	.	.	.	.	.	.	.	.	.	.	.	.	.	.	.	.
32Fn\	.	.	.	.	.	.	.	.	.	.	.	.	.	.	.	.	.
32G\	16a\ 16dd 16ff	.	.	.	.	.	.	.	.	.	.	.	.	.	.	.	.
32A\	.	.	.	.	.	.	.	.	.	.	.	.	.	.	.	.	.
32B\	16f\JJ	.	.	.	.	.	.	.	.	.	.	.	.	.	.	.	.
32c#\	.	.	.	.	.	.	.	.	.	.	.	.	.	.	.	.	.
32d\JJJ)	4f/ 4a 4dd 4ff	.	.	.	.	.	.	.	.	.	.	.	.	.	.	.	.
32ryy	.	.	.	.	.	.	.	.	.	.	.	.	.	.	.	.	.
8.ryy	.	.	.	.	.	.	.	.	.	.	.	.	.	.	.	.	.
4Cn\ 4cn	8.e/L 8.a 8.ee	.	.	.	.	.	.	.	.	.	.	.	.	.	.	.	.
.	16e/Jk 16a 16ee	.	.	.	.	.	.	.	.	.	.	.	.	.	.	.	.
=20	=20	=20	=20	=20	=20	=20	=20	=20	=20	=20	=20	=20	=20	=20	=20	=20	=20
(4BB-X\ 4B-X	(4d/ 4fn 4dd	>	1ryy	.	.	1ryy	.	.	1ryy	.	.	1ryy	.	.	1r	.	.
!	!	!	!	!	!	!	!	!	!	!	!	!	!	!	!	!	!LO:PB:g=original
4AA\ 4A	4cn/ 4f 4ccn	.	.	.	.	.	.	.	.	.	.	.	.	.	.	.	.
4FFn\ 4Fn	4f/ 4a	.	.	.	.	.	.	.	.	.	.	.	.	.	.	.	.
8.GG\L) 8.G	8.d/L) 8.b	.	.	.	.	.	.	.	.	.	.	.	.	.	.	.	.
16AA\Jk 16A	16c#X/Jk 16a	]]	.	.	.	.	.	.	.	.	.	.	.	.	.	.	.
!LO:PB:g=original	!LO:PB:g=original	!	!	!	!	!	!	!	!	!	!	!	!	!	!	!	!
=21	=21	=21	=21	=21	=21	=21	=21	=21	=21	=21	=21	=21	=21	=21	=21	=21	=21
*	*	*	*	*	*	*	*	*	*	*	*	*	*	*	*xywh-#29:178,201,1998,267	*	*
*xywh-#29:198,421,1927,426	*xywh-#29:198,421,1927,426	*	*	*	*	*	*	*	*	*	*	*	*	*	*	*	*
4AA\ 4A	4c#/ 4cc#	.	1ryy	.	.	1ryy	.	.	1ryy	.	.	1ryy	.	.	1r	.	.
32r	32r	.	.	.	.	.	.	.	.	.	.	.	.	.	.	.	.
(32AA\LLL	(32A/LLL	f	.	.	.	.	.	.	.	.	.	.	.	.	.	.	.
32BB\	32B/	.	.	.	.	.	.	.	.	.	.	.	.	.	.	.	.
32C#\JJJ	32c#/JJJ	.	.	.	.	.	.	.	.	.	.	.	.	.	.	.	.
32D\LLL	32d/LLL	.	.	.	.	.	.	.	.	.	.	.	.	.	.	.	.
32E\	32e/	.	.	.	.	.	.	.	.	.	.	.	.	.	.	.	.
32F#X\	32f#X/	.	.	.	.	.	.	.	.	.	.	.	.	.	.	.	.
32G#X\JJJ)	32g#X/JJJ)	.	.	.	.	.	.	.	.	.	.	.	.	.	.	.	.
4A^\	4a^/	.	.	.	.	.	.	.	.	.	.	.	.	.	.	.	.
8.A\L 8.e	8.a\L 8.cc#	<	.	.	.	.	.	.	.	.	.	.	.	.	.	.	.
16A\Jk 16e	16cc#\Jk 16ee	[[	.	.	.	.	.	.	.	.	.	.	.	.	.	.	.
=22	=22	=22	=22	=22	=22	=22	=22	=22	=22	=22	=22	=22	=22	=22	=22	=22	=22
2A;\ 2e	2cc#;\ 2aa	.	1ryy	.	.	1ryy	.	.	1ryy	.	.	1ryy	.	.	8r;	.	.
.	.	.	.	.	.	.	.	.	.	.	.	.	.	.	8A\	A	.
!	!	!	!	!	!	!	!	!	!	!	!	!	!	!	!LO:TX:a:t=ad libitum	!	!
.	.	.	.	.	.	.	.	.	.	.	.	.	.	.	8.A\	ste-	.
.	.	.	.	.	.	.	.	.	.	.	.	.	.	.	16A\	-ry!	.
2r	2r	.	.	.	.	.	.	.	.	.	.	.	.	.	4A\	Pro-	.
.	.	.	.	.	.	.	.	.	.	.	.	.	.	.	4AA/	-mień!	.
=23	=23	=23	=23	=23	=23	=23	=23	=23	=23	=23	=23	=23	=23	=23	=23	=23	=23
2DD\ 2D	2F#/ 2d	.	1ryy	.	.	1ryy	.	.	1ryy	.	.	1ryy	.	.	4.D\	du-	.
!	!	!	!	!	!	!	!	!	!	!	!	!	!	!	!LO:TX:a:t=a tempo	!	!
.	.	.	.	.	.	.	.	.	.	.	.	.	.	.	8D\	-chy	.
2r	2r	.	.	.	.	.	.	.	.	.	.	.	.	.	(4F#^\	mej	.
!LO:LB:g=original	!LO:LB:g=original	!	!	!	!	!	!	!	!	!	!	!	!	!	!	!	!
.	.	.	.	.	.	.	.	.	.	.	.	.	.	.	8.E\)	.	.
.	.	.	.	.	.	.	.	.	.	.	.	.	.	.	16D\	oś-	.
!	!	!	!	!	!	!	!	!	!	!	!	!	!	!	!LO:LB:g=original	!	!
=24	=24	=24	=24	=24	=24	=24	=24	=24	=24	=24	=24	=24	=24	=24	=24	=24	=24
*	*	*	*	*	*	*	*	*	*	*	*	*	*	*	*xywh-#29:160,789,1997,281	*	*
*xywh-#29:133,1003,2015,462	*xywh-#29:133,1003,2015,462	*	*	*	*	*	*	*	*	*	*	*	*	*	*	*	*
1r	1r	.	1ryy	.	.	1ryy	.	.	1ryy	.	.	1ryy	.	.	4A\	-wia-	.
.	.	.	.	.	.	.	.	.	.	.	.	.	.	.	4A\	-ty,	.
.	.	.	.	.	.	.	.	.	.	.	.	.	.	.	4r	.	.
.	.	.	.	.	.	.	.	.	.	.	.	.	.	.	8.F#\	Z łas-	.
.	.	.	.	.	.	.	.	.	.	.	.	.	.	.	16F#\	-ki	.
=25	=25	=25	=25	=25	=25	=25	=25	=25	=25	=25	=25	=25	=25	=25	=25	=25	=25
2.DD/ 2.D	2.d/ 2.fn 2.g#X 2.dd	.	1ryy	.	.	1ryy	.	.	1ryy	.	.	1ryy	.	.	2B^\	mej	.
.	.	.	.	.	.	.	.	.	.	.	.	.	.	.	4ryy	.	.
4r	4r	.	.	.	.	.	.	.	.	.	.	.	.	.	(8.A\L	stwo-	.
.	.	.	.	.	.	.	.	.	.	.	.	.	.	.	16F#\Jk)	.	.
=26	=26	=26	=26	=26	=26	=26	=26	=26	=26	=26	=26	=26	=26	=26	=26	=26	=26
[2DD/ [2D	8r	f	1ryy	.	.	1ryy	.	.	1ryy	.	.	1ryy	.	.	4D\	-rzo-	.
.	(8d'/L	<	.	.	.	.	.	.	.	.	.	.	.	.	.	.	.
.	8d'/ 8f#X	.	.	.	.	.	.	.	.	.	.	.	.	.	4D\	-ne,	.
.	8d'/J 8f# 8a	.	.	.	.	.	.	.	.	.	.	.	.	.	.	.	.
4DD/] 4D]	8f#'/L 8a 8dd	[ >	.	.	.	.	.	.	.	.	.	.	.	.	4r	.	.
.	8d'/ 8f# 8a	.	.	.	.	.	.	.	.	.	.	.	.	.	.	.	.
4r	8d'/ 8f#	.	.	.	.	.	.	.	.	.	.	.	.	.	4D\	Wy	.
.	8d'/J)	]]	.	.	.	.	.	.	.	.	.	.	.	.	.	.	.
=27	=27	=27	=27	=27	=27	=27	=27	=27	=27	=27	=27	=27	=27	=27	=27	=27	=27
!	!	!	!	!	!	!	!	!	!	!	!	!	!	!	!LO:TX:a:t=Cantabile	!	!LO:DY:a
2DD/ 2D	8r	.	1ryy	.	.	1ryy	.	.	1ryy	.	.	1ryy	.	.	4D\	coś-	p
*Xtremolo	*Xtremolo	*	*	*	*	*	*	*	*	*	*	*	*	*	*	*	*
.	(8f#/L 8dd	p	.	.	.	.	.	.	.	.	.	.	.	.	.	.	.
.	8f#/ 8dd	.	.	.	.	.	.	.	.	.	.	.	.	.	4D\	-cie	.
.	8f#/J 8dd	.	.	.	.	.	.	.	.	.	.	.	.	.	.	.	.
!	!	!	!	!	!	!	!	!	!	!	!	!	!	!	!	!	!LO:DY:a
4EE/ 4E	8e/L 8g 8cc#	.	.	.	.	.	.	.	.	.	.	.	.	.	(4E\	nieś-	<
.	8e/ 8g 8cc#	.	.	.	.	.	.	.	.	.	.	.	.	.	.	.	.
4FF#/ 4F#	8d/ 8a 8ccn	.	.	.	.	.	.	.	.	.	.	.	.	.	4F#\)	.	[[
!LO:LB:g=original	!	!	!	!	!	!	!	!	!	!	!	!	!	!LO:LB:g=original	!LO:LB:g=original	!	!
.	8d/J) 8a 8cc	.	.	.	.	.	.	.	.	.	.	.	.	.	.	.	.
!	!LO:LB:g=original	!	!	!	!	!	!	!	!	!	!	!	!	!	!	!	!
=28	=28	=28	=28	=28	=28	=28	=28	=28	=28	=28	=28	=28	=28	=28	=28	=28	=28
*	*	*	*	*	*	*	*	*	*	*	*	*	*	*	*xywh-#29:188,1462,1913,250	*	*
*xywh-#29:188,1653,1939,423	*xywh-#29:188,1653,1939,423	*	*	*	*	*	*	*	*	*	*	*	*	*	*	*	*
2.GG^\ 2.G	8ryy	.	1ryy	.	.	1ryy	.	.	1ryy	.	.	1ryy	.	.	2.G\	-li	.
.	8d/L 8g 8b	.	.	.	.	.	.	.	.	.	.	.	.	.	.	.	.
.	8d/ 8g 8b	.	.	.	.	.	.	.	.	.	.	.	.	.	.	.	.
.	8d/J 8g 8b	.	.	.	.	.	.	.	.	.	.	.	.	.	.	.	.
.	4d/ 4g 4b	.	.	.	.	.	.	.	.	.	.	.	.	.	.	.	.
4r	4r	.	.	.	.	.	.	.	.	.	.	.	.	.	(24B\LL	do	.
.	.	.	.	.	.	.	.	.	.	.	.	.	.	.	24A\JJ)	.	.
.	.	.	.	.	.	.	.	.	.	.	.	.	.	.	24G\	Pia-	.
.	.	.	.	.	.	.	.	.	.	.	.	.	.	.	(24F#\LL	-sto-	.
.	.	.	.	.	.	.	.	.	.	.	.	.	.	.	24E\	.	.
.	.	.	.	.	.	.	.	.	.	.	.	.	.	.	24D\JJ)	.	.
=29	=29	=29	=29	=29	=29	=29	=29	=29	=29	=29	=29	=29	=29	=29	=29	=29	=29
4CC#/ 4C#	8r	.	1ryy	.	.	1ryy	.	.	1ryy	.	.	1ryy	.	.	2C#\	-wej	.
.	8d/L 8g 8a	.	.	.	.	.	.	.	.	.	.	.	.	.	.	.	.
4r	8d/ 8g 8a	.	.	.	.	.	.	.	.	.	.	.	.	.	.	.	.
.	8d/J 8g 8a	.	.	.	.	.	.	.	.	.	.	.	.	.	.	.	.
8DD/ 8D	8r	.	.	.	.	.	.	.	.	.	.	.	.	.	8.D\	do	.
8r	8d/ 8f# 8a	.	.	.	.	.	.	.	.	.	.	.	.	.	.	.	.
.	.	.	.	.	.	.	.	.	.	.	.	.	.	.	16D\	Pia-	.
8DD/	8r	.	.	.	.	.	.	.	.	.	.	.	.	.	8.E\	-sto-	.
8r	8d/ 8f# 8a	.	.	.	.	.	.	.	.	.	.	.	.	.	.	.	.
.	.	.	.	.	.	.	.	.	.	.	.	.	.	.	16F#\	-wej	.
=30	=30	=30	=30	=30	=30	=30	=30	=30	=30	=30	=30	=30	=30	=30	=30	=30	=30
2.AAA/ 2.AA	4r	.	1ryy	.	.	1ryy	.	.	1ryy	.	.	1ryy	.	.	2AA/	cha-	.
.	8c#/L 8a	p	.	.	.	.	.	.	.	.	.	.	.	.	.	.	.
.	8c#/J 8a	.	.	.	.	.	.	.	.	.	.	.	.	.	.	.	.
.	8d/L 8g#X	.	.	.	.	.	.	.	.	.	.	.	.	.	4AA/	-ty	.
.	8d/J 8g#	.	.	.	.	.	.	.	.	.	.	.	.	.	.	.	.
4AAA/ 4AA	8c#/L 8gn	.	.	.	.	.	.	.	.	.	.	.	.	.	4r	.	.
.	8c#/J 8g	.	.	.	.	.	.	.	.	.	.	.	.	.	.	.	.
=31	=31	=31	=31	=31	=31	=31	=31	=31	=31	=31	=31	=31	=31	=31	=31	=31	=31
(2AAA/ 2AA	4d/ 4f#	<	1ryy	.	.	1ryy	.	.	1ryy	.	.	1ryy	.	.	2r	.	.
.	8f#/L 8dd	.	.	.	.	.	.	.	.	.	.	.	.	.	.	.	.
.	8f#/J 8dd	[	.	.	.	.	.	.	.	.	.	.	.	.	.	.	.
2AA\) 2A	(8ee/L	.	.	.	.	.	.	.	.	.	.	.	.	.	4r	.	.
!LO:LB:g=original	!	!	!	!	!	!	!	!	!	!	!	!	!	!	!	!	!
.	8cc#/	.	.	.	.	.	.	.	.	.	.	.	.	.	.	.	.
.	8b/	.	.	.	.	.	.	.	.	.	.	.	.	.	4A\	Ber-	.
!	!	!	!	!	!	!	!	!	!	!	!	!	!	!	!LO:LB:g=original	!	!
.	8gn/J)	.	.	.	.	.	.	.	.	.	.	.	.	.	.	.	.
!	!LO:LB:g=original	!	!	!	!	!	!	!	!	!	!	!	!	!	!	!	!
=32	=32	=32	=32	=32	=32	=32	=32	=32	=32	=32	=32	=32	=32	=32	=32	=32	=32
*	*	*	*	*	*	*	*	*	*	*	*	*	*	*	*xywh-#29:209,2022,1904,259	*	*
*xywh-#29:124,2218,2049,445	*xywh-#29:124,2218,2049,445	*	*	*	*	*	*	*	*	*	*	*	*	*	*	*	*
4E\ 4G#X	8r	p	1ryy	.	.	1ryy	.	.	1ryy	.	.	1ryy	.	.	2G#X^\	-ło	.
.	(8B/L 8d	.	.	.	.	.	.	.	.	.	.	.	.	.	.	.	.
4r	8d/ 8e	.	.	.	.	.	.	.	.	.	.	.	.	.	.	.	.
.	8d/J) 8e 8b	.	.	.	.	.	.	.	.	.	.	.	.	.	.	.	.
4AA\ 4Gn	8r	.	.	.	.	.	.	.	.	.	.	.	.	.	4.Gn\	i	.
.	(8A/L 8c#	.	.	.	.	.	.	.	.	.	.	.	.	.	.	.	.
4r	8c#/ 8e	.	.	.	.	.	.	.	.	.	.	.	.	.	.	.	.
.	8c#/J) 8a	.	.	.	.	.	.	.	.	.	.	.	.	.	8G\	ko-	.
=33	=33	=33	=33	=33	=33	=33	=33	=33	=33	=33	=33	=33	=33	=33	=33	=33	=33
2D\ 2F#	8r	.	1ryy	.	.	1ryy	.	.	1ryy	.	.	1ryy	.	.	4F#\	-ro-	.
.	(8d'/L	<	.	.	.	.	.	.	.	.	.	.	.	.	.	.	.
.	8d'/ 8f#	.	.	.	.	.	.	.	.	.	.	.	.	.	4F#\	-nę	.
.	8d'/J 8f# 8a	[	.	.	.	.	.	.	.	.	.	.	.	.	.	.	.
4DD/	8d'/L 8f# 8dd	>	.	.	.	.	.	.	.	.	.	.	.	.	4r	.	.
.	8d'/ 8f# 8a	.	.	.	.	.	.	.	.	.	.	.	.	.	.	.	.
4r	8d'/ 8f#	.	.	.	.	.	.	.	.	.	.	.	.	.	4F#\	Ber-	.
.	8d'/J)	]	.	.	.	.	.	.	.	.	.	.	.	.	.	.	.
=34	=34	=34	=34	=34	=34	=34	=34	=34	=34	=34	=34	=34	=34	=34	=34	=34	=34
4FF#/ 4D	8r	.	1ryy	.	.	1ryy	.	.	1ryy	.	.	1ryy	.	.	2F#\	-ło	.
.	(8d/L 8f#	.	.	.	.	.	.	.	.	.	.	.	.	.	.	.	.
4r	8f#/ 8b	.	.	.	.	.	.	.	.	.	.	.	.	.	.	.	.
.	8b/J) 8dd	.	.	.	.	.	.	.	.	.	.	.	.	.	.	.	.
4FF#/ 4D	8r	.	.	.	.	.	.	.	.	.	.	.	.	.	4r	.	.
.	(8c#/L 8f#	.	.	.	.	.	.	.	.	.	.	.	.	.	.	.	.
4r	8f#/ 8a#X	.	.	.	.	.	.	.	.	.	.	.	.	.	8.E\	i	.
.	8a#/J) 8cc#	.	.	.	.	.	.	.	.	.	.	.	.	.	.	.	.
.	.	.	.	.	.	.	.	.	.	.	.	.	.	.	16E\	ko-	.
=35	=35	=35	=35	=35	=35	=35	=35	=35	=35	=35	=35	=35	=35	=35	=35	=35	=35
[2BBB/ [2BB	8r	p	1ryy	.	.	1ryy	.	.	1ryy	.	.	1ryy	.	.	4D\	-ro-	.
.	8B/L	.	.	.	.	.	.	.	.	.	.	.	.	.	.	.	.
.	8B/ 8d	.	.	.	.	.	.	.	.	.	.	.	.	.	4D\	-nę;	.
.	8d/J 8f#	.	.	.	.	.	.	.	.	.	.	.	.	.	.	.	.
4BBB/] 4BB]	4d/ 4b	.	.	.	.	.	.	.	.	.	.	.	.	.	4r	.	.
!	!	!	!	!	!	!	!	!	!	!	!	!	!	!	!	!	!LO:DY:a
4r	4r	.	.	.	.	.	.	.	.	.	.	.	.	.	4F#\	Ot	f
!LO:LB:g=original	!LO:LB:g=original	!	!	!	!	!	!	!	!	!	!	!	!	!	!LO:LB:g=original	!	!
=36	=36	=36	=36	=36	=36	=36	=36	=36	=36	=36	=36	=36	=36	=36	=36	=36	=36
*	*	*	*	*	*	*	*	*	*	*	*	*	*	*	*xywh-#29:141,2616,2026,244	*	*
*xywh-#29:146,2793,1998,450	*xywh-#29:146,2793,1998,450	*	*	*	*	*	*	*	*	*	*	*	*	*	*	*	*
[2DD\ [2D	(((2G#X/ 2B 2d	sf	1ryy	.	.	1ryy	.	.	1ryy	.	.	1ryy	.	.	(2B\	.	.
2DD\] 2D]	2F#/))) 2A 2d	.	.	.	.	.	.	.	.	.	.	.	.	.	4.A\)	.	.
.	.	.	.	.	.	.	.	.	.	.	.	.	.	.	8F#\	.	.
=37	=37	=37	=37	=37	=37	=37	=37	=37	=37	=37	=37	=37	=37	=37	=37	=37	=37
4r	4r	.	1ryy	.	.	1ryy	.	.	1ryy	.	.	1ryy	.	.	4D\	.	.
8.DD/L 8.D	(8.d/L 8.f#	.	.	.	.	.	.	.	.	.	.	.	.	.	4D\	.	.
16DD/Jk 16D	16f#/Jk 16a	.	.	.	.	.	.	.	.	.	.	.	.	.	.	.	.
4DD/ 4D	4f#/) 4dd	.	.	.	.	.	.	.	.	.	.	.	.	.	4r	.	.
4r	4r	.	.	.	.	.	.	.	.	.	.	.	.	.	8.C#/	.	.
.	.	.	.	.	.	.	.	.	.	.	.	.	.	.	16BB/	.	.
=38	=38	=38	=38	=38	=38	=38	=38	=38	=38	=38	=38	=38	=38	=38	=38	=38	=38
!	!	!	!	!	!	!	!	!	!	!	!	!	!	!	!	!	!LO:DY:a
2.AAA/ 2.AA	8r	p	1ryy	.	.	1ryy	.	.	1ryy	.	.	1ryy	.	.	2AA/	.	p
!	!LO:TX:b:t=colla voce.	!	!	!	!	!	!	!	!	!	!	!	!	!	!	!	!
.	8A/L 8f# 8a	.	.	.	.	.	.	.	.	.	.	.	.	.	.	.	.
.	8A/ 8f# 8a	.	.	.	.	.	.	.	.	.	.	.	.	.	.	.	.
.	8A/J 8f# 8a	.	.	.	.	.	.	.	.	.	.	.	.	.	.	.	.
!	!	!	!	!	!	!	!	!	!	!	!	!	!	!	!LO:TX:a:t=rall.	!	!
.	8d/L 8fn 8g#X	.	.	.	.	.	.	.	.	.	.	.	.	.	4BB/	.	.
.	8d/J 8f 8g#	.	.	.	.	.	.	.	.	.	.	.	.	.	.	.	.
4AAA/ 4AA	8A/L 8e 8gn	.	.	.	.	.	.	.	.	.	.	.	.	.	(8.D/L	.	.
.	8A/J 8e 8g	.	.	.	.	.	.	.	.	.	.	.	.	.	.	.	.
.	.	.	.	.	.	.	.	.	.	.	.	.	.	.	16C#/Jk)	.	.
=39	=39	=39	=39	=39	=39	=39	=39	=39	=39	=39	=39	=39	=39	=39	=39	=39	=39
!	!	!	!	!	!	!	!	!	!	!	!	!	!	!	!LO:TX:a:t=a tempo	!	!
4DD/ 4D	8d/L 8f#X	p	1ryy	.	.	1ryy	.	.	1ryy	.	.	1ryy	.	.	2D\	.	.
.	8d/ 8f#	.	.	.	.	.	.	.	.	.	.	.	.	.	.	.	.
4BB\ 4B	8e/ 8g#X 8dd	.	.	.	.	.	.	.	.	.	.	.	.	.	.	.	.
.	8e/J 8g# 8dd	>	.	.	.	.	.	.	.	.	.	.	.	.	.	.	.
4AA\ 4A	8f#X/L 8a 8cc#	.	.	.	.	.	.	.	.	.	.	.	.	.	2r	.	.
!	!	!	!	!	!	!	!	!	!	!	!	!	!	!	!	!LO:PB:g=original	!
.	8f#/ 8a 8cc#	.	.	.	.	.	.	.	.	.	.	.	.	.	.	.	.
4CC#/ 4C#	8e/ 8g# 8b	.	.	.	.	.	.	.	.	.	.	.	.	.	.	.	.
.	8e/J 8g# 8b	]	.	.	.	.	.	.	.	.	.	.	.	.	.	.	.
!LO:PB:g=original	!LO:PB:g=original	!	!	!	!	!	!	!	!	!	!	!	!	!	!	!	!
=40	=40	=40	=40	=40	=40	=40	=40	=40	=40	=40	=40	=40	=40	=40	=40	=40	=40
*	*^	*	*	*	*	*	*	*	*	*	*	*	*	*	*	*	*
*	*	*	*	*	*	*	*	*	*	*	*	*	*	*	*	*xywh-#30:363,177,1919,299	*	*
*xywh-#30:339,398,1941,444	*xywh-#30:339,398,1941,444	*xywh-#30:339,398,1941,444	*	*	*	*	*	*	*	*	*	*	*	*	*	*	*	*
4FF#/ 4F#	8f#/L 8a	4ryy	.	1ryy	.	.	1ryy	.	.	1ryy	.	.	1ryy	.	.	2r	.	.
.	8f#/J 8a	.	.	.	.	.	.	.	.	.	.	.	.	.	.	.	.	.
4DD/ 4D	4b/	4d\	.	.	.	.	.	.	.	.	.	.	.	.	.	.	.	.
.	.	16qqf#X/LL	.	.	.	.	.	.	.	.	.	.	.	.	.	.	.	.
.	.	16qqfn/JJ	.	.	.	.	.	.	.	.	.	.	.	.	.	.	.	.
4EE\ 4E	8a/L	8c#\L 8en	.	.	.	.	.	.	.	.	.	.	.	.	.	4r	.	.
.	8a/	8c#\ 8e	.	.	.	.	.	.	.	.	.	.	.	.	.	.	.	.
4EE\ 4E	8g#X/	8B\ 8e	.	.	.	.	.	.	.	.	.	.	.	.	.	4E\	Ot-	.
.	8g#/J	8B\J 8e	.	.	.	.	.	.	.	.	.	.	.	.	.	.	.	.
*	*v	*v	*	*	*	*	*	*	*	*	*	*	*	*	*	*	*	*
=41	=41	=41	=41	=41	=41	=41	=41	=41	=41	=41	=41	=41	=41	=41	=41	=41	=41
2AAA/ 2AA	8.c#/L 8.e 8.a	.	1ryy	.	.	1ryy	.	.	1ryy	.	.	1ryy	.	.	1A	-wórz-	.
.	16a/Jk	.	.	.	.	.	.	.	.	.	.	.	.	.	.	.	.
.	(16b/LL	.	.	.	.	.	.	.	.	.	.	.	.	.	.	.	.
.	16a/	.	.	.	.	.	.	.	.	.	.	.	.	.	.	.	.
.	16g#X/	.	.	.	.	.	.	.	.	.	.	.	.	.	.	.	.
.	16a/JJ)	.	.	.	.	.	.	.	.	.	.	.	.	.	.	.	.
4AA\ 4C# 4E 4A	8.cc#\L	.	.	.	.	.	.	.	.	.	.	.	.	.	.	.	.
.	16a\K	.	.	.	.	.	.	.	.	.	.	.	.	.	.	.	.
4AA\ 4C# 4E 4A	8.ee\	.	.	.	.	.	.	.	.	.	.	.	.	.	.	.	.
.	16cc#\Jk	.	.	.	.	.	.	.	.	.	.	.	.	.	.	.	.
=42	=42	=42	=42	=42	=42	=42	=42	=42	=42	=42	=42	=42	=42	=42	=42	=42	=42
2AA\ 2C# 2E 2A	2aa^\	sf	1ryy	.	.	1ryy	.	.	1ryy	.	.	1ryy	.	.	4.A\	-cie	.
.	.	.	.	.	.	.	.	.	.	.	.	.	.	.	8A\	ot-	.
2r	2r	.	.	.	.	.	.	.	.	.	.	.	.	.	4.A\	-wórz-	.
.	.	.	.	.	.	.	.	.	.	.	.	.	.	.	8A\	-cie	.
=43	=43	=43	=43	=43	=43	=43	=43	=43	=43	=43	=43	=43	=43	=43	=43	=43	=43
!	!	!	!	!	!	!	!	!	!	!	!	!	!	!	!	!	!LO:DY:a
2DD/ 2D	8.d\L 8.fn 8.a 8.dd	f	1ryy	.	.	1ryy	.	.	1ryy	.	.	1ryy	.	.	(2d\	skrzy-	f
.	16dd\Jk	.	.	.	.	.	.	.	.	.	.	.	.	.	.	.	.
.	(16ee\LL	.	.	.	.	.	.	.	.	.	.	.	.	.	.	.	.
.	16dd\	.	.	.	.	.	.	.	.	.	.	.	.	.	.	.	.
.	16cc#\	.	.	.	.	.	.	.	.	.	.	.	.	.	.	.	.
.	16dd\JJ)	<	.	.	.	.	.	.	.	.	.	.	.	.	.	.	.
4D\ 4Fn 4A 4d	8.ffn\L	.	.	.	.	.	.	.	.	.	.	.	.	.	4d\	-dła!	.
.	16dd\K	.	.	.	.	.	.	.	.	.	.	.	.	.	.	.	.
4D\ 4F 4A 4d	8.aa\	.	.	.	.	.	.	.	.	.	.	.	.	.	8.A\	Wróć-	.
.	16ff\Jk	[[	.	.	.	.	.	.	.	.	.	.	.	.	16Fn\)	-cie	.
!LO:LB:g=original	!LO:LB:g=original	!	!	!	!	!	!	!	!	!	!	!	!	!	!LO:LB:g=original	!	!
=44	=44	=44	=44	=44	=44	=44	=44	=44	=44	=44	=44	=44	=44	=44	=44	=44	=44
*	*	*	*	*	*	*	*	*	*	*	*	*	*	*	*xywh-#30:294,798,2020,260	*	*
*xywh-#30:298,953,2038,494	*xywh-#30:298,953,2038,494	*	*	*	*	*	*	*	*	*	*	*	*	*	*	*	*
4D\ 4Fn 4A 4d	8ddd\L	.	1ryy	.	.	1ryy	.	.	1ryy	.	.	1ryy	.	.	2D\	tam	.
.	16d\L	.	.	.	.	.	.	.	.	.	.	.	.	.	.	.	.
.	16e\JJ	.	.	.	.	.	.	.	.	.	.	.	.	.	.	.	.
4AA\ 4A	16fn\LL	.	.	.	.	.	.	.	.	.	.	.	.	.	.	.	.
.	16g\	.	.	.	.	.	.	.	.	.	.	.	.	.	.	.	.
.	16a\	<	.	.	.	.	.	.	.	.	.	.	.	.	.	.	.
.	16bn\JJ	.	.	.	.	.	.	.	.	.	.	.	.	.	.	.	.
4FFn\ 4Fn	16cc#X\LL	.	.	.	.	.	.	.	.	.	.	.	.	.	4r	.	.
.	16dd\	.	.	.	.	.	.	.	.	.	.	.	.	.	.	.	.
.	16ee\	.	.	.	.	.	.	.	.	.	.	.	.	.	.	.	.
.	16ffn\JJ	.	.	.	.	.	.	.	.	.	.	.	.	.	.	.	.
4DD/ 4D	16gg\LL	.	.	.	.	.	.	.	.	.	.	.	.	.	4d\	na	.
.	16aa\	.	.	.	.	.	.	.	.	.	.	.	.	.	.	.	.
.	16bbn\	.	.	.	.	.	.	.	.	.	.	.	.	.	.	.	.
.	16ccc#X\JJ	[[	.	.	.	.	.	.	.	.	.	.	.	.	.	.	.
=45	=45	=45	=45	=45	=45	=45	=45	=45	=45	=45	=45	=45	=45	=45	=45	=45	=45
*8ba	*	*	*	*	*	*	*	*	*	*	*	*	*	*	*	*	*
2DDD/	8.dd\L 8.ff# 8.gg#X 8.bb 8.ddd	.	1ryy	.	.	1ryy	.	.	1ryy	.	.	1ryy	.	.	2.d\	zie-	.
.	16dd\Jk	.	.	.	.	.	.	.	.	.	.	.	.	.	.	.	.
.	16ee\LL	.	.	.	.	.	.	.	.	.	.	.	.	.	.	.	.
.	16dd\	.	.	.	.	.	.	.	.	.	.	.	.	.	.	.	.
.	16cc#\	.	.	.	.	.	.	.	.	.	.	.	.	.	.	.	.
.	16dd\JJ	.	.	.	.	.	.	.	.	.	.	.	.	.	.	.	.
*X8ba	*	*	*	*	*	*	*	*	*	*	*	*	*	*	*	*	*
4D\ 4Fn 4G#X 4B 4d	8.ff#\L	sf	.	.	.	.	.	.	.	.	.	.	.	.	.	.	.
.	16dd\K	.	.	.	.	.	.	.	.	.	.	.	.	.	.	.	.
4D\ 4F 4G# 4B 4d	8.bb\	sf	.	.	.	.	.	.	.	.	.	.	.	.	4D\	-mię	.
.	16ff#\Jk	.	.	.	.	.	.	.	.	.	.	.	.	.	.	.	.
=46	=46	=46	=46	=46	=46	=46	=46	=46	=46	=46	=46	=46	=46	=46	=46	=46	=46
2D\ 2Fn 2G#X 2B 2d	4ddd\	.	1ryy	.	.	1ryy	.	.	1ryy	.	.	1ryy	.	.	(8D\L	w po-	.
.	.	.	.	.	.	.	.	.	.	.	.	.	.	.	8Fn\J)	.	.
.	(8dd\L	.	.	.	.	.	.	.	.	.	.	.	.	.	(8F\L	-moc	.
.	8ee\J	.	.	.	.	.	.	.	.	.	.	.	.	.	8G#X\J)	.	.
4D\ 4F 4G# 4B 4d	8ffn\L	.	.	.	.	.	.	.	.	.	.	.	.	.	(8G#\L	tej	.
.	8dd\	.	.	.	.	.	.	.	.	.	.	.	.	.	8B\J)	.	.
4D\ 4F 4G# 4B 4d	8b\	.	.	.	.	.	.	.	.	.	.	.	.	.	(8B\L	dzie-	.
.	8g#X\J)	.	.	.	.	.	.	.	.	.	.	.	.	.	8d\J)	.	.
!LO:LB:g=original	!LO:LB:g=original	!	!	!	!	!	!	!	!	!	!	!	!	!	!LO:LB:g=original	!	!
=47	=47	=47	=47	=47	=47	=47	=47	=47	=47	=47	=47	=47	=47	=47	=47	=47	=47
*	*	*	*	*	*	*	*	*	*	*	*	*	*	*	*xywh-#30:324,1344,2028,325	*	*
*xywh-#30:289,1579,2042,523	*xywh-#30:289,1579,2042,523	*	*	*	*	*	*	*	*	*	*	*	*	*	*	*	*
2AA\ 2C# 2E 2A	8.a/L	.	1ryy	.	.	1ryy	.	.	1ryy	.	.	1ryy	.	.	4c#\	-ci-	.
.	16a/Jk	.	.	.	.	.	.	.	.	.	.	.	.	.	.	.	.
.	(16b/LL	.	.	.	.	.	.	.	.	.	.	.	.	.	4A\	-nie	.
.	16a/	.	.	.	.	.	.	.	.	.	.	.	.	.	.	.	.
.	16g/	<	.	.	.	.	.	.	.	.	.	.	.	.	.	.	.
.	16a/JJ)	.	.	.	.	.	.	.	.	.	.	.	.	.	.	.	.
4AA\ 4C# 4E 4A	8.cc#\L	.	.	.	.	.	.	.	.	.	.	.	.	.	4r	.	.
.	16a\Jk	.	.	.	.	.	.	.	.	.	.	.	.	.	.	.	.
!	!	!	!	!	!	!	!	!	!	!	!	!	!	!	!	!	!LO:DY:a
4AA\ 4C# 4E 4A	8.ee\L	.	.	.	.	.	.	.	.	.	.	.	.	.	8C#\	W po-	mf
.	.	.	.	.	.	.	.	.	.	.	.	.	.	.	8E\	-moc	.
.	16cc#\Jk	[	.	.	.	.	.	.	.	.	.	.	.	.	.	.	.
=48	=48	=48	=48	=48	=48	=48	=48	=48	=48	=48	=48	=48	=48	=48	=48	=48	=48
*^	*	*	*	*	*	*	*	*	*	*	*	*	*	*	*	*	*
*	*	*xywh-#30:289,1579,2042,523	*	*	*	*	*	*	*	*	*	*	*	*	*	*	*	*
4A\	4AA\ 4C# 4E	8.aa\L	.	1ryy	.	.	1ryy	.	.	1ryy	.	.	1ryy	.	.	[2.A\	tej	.
.	.	16aa\Jk	.	.	.	.	.	.	.	.	.	.	.	.	.	.	.	.
4A/	2.AA\	(16bb\LL	.	.	.	.	.	.	.	.	.	.	.	.	.	.	.	.
.	.	16aa\	.	.	.	.	.	.	.	.	.	.	.	.	.	.	.	.
.	.	16gg#X\	.	.	.	.	.	.	.	.	.	.	.	.	.	.	.	.
.	.	16aa\JJ)	.	.	.	.	.	.	.	.	.	.	.	.	.	.	.	.
4E/	.	8ccc#\L	>	.	.	.	.	.	.	.	.	.	.	.	.	.	.	.
.	.	8eee\	.	.	.	.	.	.	.	.	.	.	.	.	.	.	.	.
4C#/	.	8aaa\	.	.	.	.	.	.	.	.	.	.	.	.	.	8.A\]	.	.
.	.	8gggn\J	]]	.	.	.	.	.	.	.	.	.	.	.	.	.	.	.
.	.	.	.	.	.	.	.	.	.	.	.	.	.	.	.	16G\	dzie-	.
=49	=49	=49	=49	=49	=49	=49	=49	=49	=49	=49	=49	=49	=49	=49	=49	=49	=49	=49
(8D/L	2BB-X\	8fffn\	.	1ryy	.	.	1ryy	.	.	1ryy	.	.	1ryy	.	.	4Fn\	-ci-	.
8Fn/	.	(8b-X\L 8dd	.	.	.	.	.	.	.	.	.	.	.	.	.	.	.	.
8B-X/	.	8dd\ 8ffn	.	.	.	.	.	.	.	.	.	.	.	.	.	4F\	-nie:	.
8F/J)	.	8ccn\J) 8ee-X	.	.	.	.	.	.	.	.	.	.	.	.	.	.	.	.
(8D/L	2BB-\	4b-\ 4dd	.	.	.	.	.	.	.	.	.	.	.	.	.	4r	.	.
8Fn/	.	.	.	.	.	.	.	.	.	.	.	.	.	.	.	.	.	.
8B-X/	.	4r	.	.	.	.	.	.	.	.	.	.	.	.	.	8.D\	Gdzie	.
!	!	!LO:LB:g=original	!	!	!	!	!	!	!	!	!	!	!	!	!	!	!	!
8F/J)	.	.	.	.	.	.	.	.	.	.	.	.	.	.	.	.	.	.
!LO:LB:g=original	!	!	!	!	!	!	!	!	!	!	!	!	!	!	!	!	!	!
.	.	.	.	.	.	.	.	.	.	.	.	.	.	.	.	16D\	sło-	.
!	!	!	!	!	!	!	!	!	!	!	!	!	!	!	!	!LO:LB:g=original	!	!
=50	=50	=50	=50	=50	=50	=50	=50	=50	=50	=50	=50	=50	=50	=50	=50	=50	=50	=50
*	*	*	*	*	*	*	*	*	*	*	*	*	*	*	*	*xywh-#30:225,2021,2030,258	*	*
*xywh-#30:299,2209,2008,428	*xywh-#30:299,2209,2008,428	*xywh-#30:299,2209,2008,428	*	*	*	*	*	*	*	*	*	*	*	*	*	*	*	*
(8E-X/L	2BB-X\	8r	.	1ryy	.	.	1ryy	.	.	1ryy	.	.	1ryy	.	.	2E-X\	-wiań-	.
*	*	*8va	*	*	*	*	*	*	*	*	*	*	*	*	*	*	*	*
8Fn/	.	8aa\L 8cccn	.	.	.	.	.	.	.	.	.	.	.	.	.	.	.	.
8A/	.	8ccc\ 8eee-X	.	.	.	.	.	.	.	.	.	.	.	.	.	.	.	.
8F/J)	.	8bb-X\J 8ddd	.	.	.	.	.	.	.	.	.	.	.	.	.	.	.	.
(8E-/L	2ryy	4aa\ 4ccc	.	.	.	.	.	.	.	.	.	.	.	.	.	4E-\	-skich	.
8F/	.	.	.	.	.	.	.	.	.	.	.	.	.	.	.	.	.	.
*	*	*X8va	*	*	*	*	*	*	*	*	*	*	*	*	*	*	*	*
8A/	.	4r	.	.	.	.	.	.	.	.	.	.	.	.	.	(8.F#\L	Cze-	.
8F/J)	.	.	.	.	.	.	.	.	.	.	.	.	.	.	.	.	.	.
.	.	.	.	.	.	.	.	.	.	.	.	.	.	.	.	16E-\Jk)	.	.
=51	=51	=51	=51	=51	=51	=51	=51	=51	=51	=51	=51	=51	=51	=51	=51	=51	=51	=51
8D/L	2BB-X\	8r	.	1ryy	.	.	1ryy	.	.	1ryy	.	.	1ryy	.	.	[2D\	-chów	.
!	!	!LO:TX:a:t=loco.	!	!	!	!	!	!	!	!	!	!	!	!	!	!	!	!
8Fn/	.	(8b-X\L 8dd	.	.	.	.	.	.	.	.	.	.	.	.	.	.	.	.
8B-X/	.	8dd\ 8ffn	.	.	.	.	.	.	.	.	.	.	.	.	.	.	.	.
8F/J	.	8ccn\J) 8ee-X	.	.	.	.	.	.	.	.	.	.	.	.	.	.	.	.
8D/L	2BB-\	4b-\ 4dd	.	.	.	.	.	.	.	.	.	.	.	.	.	4D\]	.	.
8F/	.	.	.	.	.	.	.	.	.	.	.	.	.	.	.	.	.	.
8B-/	.	4r	.	.	.	.	.	.	.	.	.	.	.	.	.	8.D\	to	.
8F/J	.	.	.	.	.	.	.	.	.	.	.	.	.	.	.	.	.	.
.	.	.	.	.	.	.	.	.	.	.	.	.	.	.	.	16E\	pas-	.
=52	=52	=52	=52	=52	=52	=52	=52	=52	=52	=52	=52	=52	=52	=52	=52	=52	=52	=52
8BB/L	2BBn\	8r	.	1ryy	.	.	1ryy	.	.	1ryy	.	.	1ryy	.	.	2.Fn\	-ter-	.
*	*	*8va	*	*	*	*	*	*	*	*	*	*	*	*	*	*	*	*
8F#/	.	8bbn\L 8ddd	.	.	.	.	.	.	.	.	.	.	.	.	.	.	.	.
8G/	.	8ddd\ 8fffn	.	.	.	.	.	.	.	.	.	.	.	.	.	.	.	.
8F#/J	.	8cccn\J 8eee-X	.	.	.	.	.	.	.	.	.	.	.	.	.	.	.	.
8GG/L	2GG\	4bb\ 4ddd	.	.	.	.	.	.	.	.	.	.	.	.	.	.	.	.
8BB/	.	.	.	.	.	.	.	.	.	.	.	.	.	.	.	.	.	.
*	*	*X8va	*	*	*	*	*	*	*	*	*	*	*	*	*	*	*	*
8D/	.	4r	.	.	.	.	.	.	.	.	.	.	.	.	.	(8.G\L	-skie	.
8G/J	.	.	.	.	.	.	.	.	.	.	.	.	.	.	.	.	.	.
.	.	.	.	.	.	.	.	.	.	.	.	.	.	.	.	16F\Jk)	.	.
=53	=53	=53	=53	=53	=53	=53	=53	=53	=53	=53	=53	=53	=53	=53	=53	=53	=53	=53
8E-X/L	2Cn\	8r	.	1ryy	.	.	1ryy	.	.	1ryy	.	.	1ryy	.	.	4E-X\	ple-	.
!	!	!LO:TX:a:t=loco.	!	!	!	!	!	!	!	!	!	!	!	!	!	!	!	!
8G/	.	(8ccn\L 8ee-X	.	.	.	.	.	.	.	.	.	.	.	.	.	.	.	.
8cn/	.	8ee-\ 8gg	.	.	.	.	.	.	.	.	.	.	.	.	.	4C#\	-mie	.
8G/J	.	8dd\J) 8ffn	.	.	.	.	.	.	.	.	.	.	.	.	.	.	.	.
8E-/L	2Cn\	4cc\ 4ee-	.	.	.	.	.	.	.	.	.	.	.	.	.	4r	.	.
8G/	.	.	.	.	.	.	.	.	.	.	.	.	.	.	.	.	.	.
8cn/	.	4r	.	.	.	.	.	.	.	.	.	.	.	.	.	8.G\	to	.
!	!	!LO:LB:g=original	!	!	!	!	!	!	!	!	!	!	!	!	!	!	!	!
8G/J	.	.	.	.	.	.	.	.	.	.	.	.	.	.	.	.	.	.
.	.	.	.	.	.	.	.	.	.	.	.	.	.	.	.	16A\	pas-	.
!LO:LB:g=original	!	!	!	!	!	!	!	!	!	!	!	!	!	!	!	!LO:LB:g=original	!	!
=54	=54	=54	=54	=54	=54	=54	=54	=54	=54	=54	=54	=54	=54	=54	=54	=54	=54	=54
*	*	*	*	*	*	*	*	*	*	*	*	*	*	*	*	*xywh-#30:257,2581,2076,256	*	*
*xywh-#30:263,2756,2030,521	*xywh-#30:263,2756,2030,521	*xywh-#30:263,2756,2030,521	*	*	*	*	*	*	*	*	*	*	*	*	*	*	*	*
(8Fn/L	2Cn\	8r	.	1ryy	.	.	1ryy	.	.	1ryy	.	.	1ryy	.	.	[2G\	-ters-	.
*	*	*8va	*	*	*	*	*	*	*	*	*	*	*	*	*	*	*	*
8G/	.	8bbn\L 8ddd	.	.	.	.	.	.	.	.	.	.	.	.	.	.	.	.
8B/	.	8ddd\ 8fffn	.	.	.	.	.	.	.	.	.	.	.	.	.	.	.	.
8G/J)	.	8cccn\J 8eee-X	.	.	.	.	.	.	.	.	.	.	.	.	.	.	.	.
(8F/L	2C\	4bb\ 4ddd	<	.	.	.	.	.	.	.	.	.	.	.	.	4.G\]	.	.
8G/	.	.	.	.	.	.	.	.	.	.	.	.	.	.	.	.	.	.
*	*	*X8va	*	*	*	*	*	*	*	*	*	*	*	*	*	*	*	*
8B/	.	4r	.	.	.	.	.	.	.	.	.	.	.	.	.	.	.	.
8G/J)	.	.	.	.	.	.	.	.	.	.	.	.	.	.	.	8Fn\	-kie	.
=55	=55	=55	=55	=55	=55	=55	=55	=55	=55	=55	=55	=55	=55	=55	=55	=55	=55	=55
8E-X/L	2Cn\	8r	.	1ryy	.	.	1ryy	.	.	1ryy	.	.	1ryy	.	.	4E-X\	ple-	.
8G/	.	(8ccn\L 8ee-X	.	.	.	.	.	.	.	.	.	.	.	.	.	.	.	.
8cn/	.	8ee-\ 8gg	.	.	.	.	.	.	.	.	.	.	.	.	.	4C#\	-mie,	.
8G/J	.	8dd\J) 8ffn	.	.	.	.	.	.	.	.	.	.	.	.	.	.	.	.
8E-/L	2C\	4cc\ 4ee-	.	.	.	.	.	.	.	.	.	.	.	.	.	2r	.	.
8G/	.	.	.	.	.	.	.	.	.	.	.	.	.	.	.	.	.	.
8cn/	.	4r	.	.	.	.	.	.	.	.	.	.	.	.	.	.	.	.
8G/J	.	.	.	.	.	.	.	.	.	.	.	.	.	.	.	.	.	.
=56	=56	=56	=56	=56	=56	=56	=56	=56	=56	=56	=56	=56	=56	=56	=56	=56	=56	=56
*	*	*^	*	*	*	*	*	*	*	*	*	*	*	*	*	*	*	*
*	*	*	*xywh-#30:263,2756,2030,521	*	*	*	*	*	*	*	*	*	*	*	*	*	*	*	*
8D-X/L	2BB-X\	8r	4ryy	.	1ryy	.	.	1ryy	.	.	1ryy	.	.	1ryy	.	.	2E-X\	Woj-	.
8E-X/	.	8ee-X/L	.	.	.	.	.	.	.	.	.	.	.	.	.	.	.	.	.
8G/	.	8gg/	4dd-X\	.	.	.	.	.	.	.	.	.	.	.	.	.	.	.	.
8E-/J	.	8ffn/J	.	.	.	.	.	.	.	.	.	.	.	.	.	.	.	.	.
8D-/L	2BB-\	4.ee-/	4.g\ 4.dd-	.	.	.	.	.	.	.	.	.	.	.	.	.	4E-\	-ciech	.
8E-/	.	.	.	.	.	.	.	.	.	.	.	.	.	.	.	.	.	.	.
!	!	!	!	!	!	!	!	!	!	!	!	!	!	!	!	!	!	!	!LO:DY:a
8G/	.	.	.	.	.	.	.	.	.	.	.	.	.	.	.	.	8Fn\	nasz	<
8E-/J	.	8ee-/	8dd-\	[	.	.	.	.	.	.	.	.	.	.	.	.	8G\	za-	[[
*v	*v	*	*	*	*	*	*	*	*	*	*	*	*	*	*	*	*	*	*
=57	=57	=57	=57	=57	=57	=57	=57	=57	=57	=57	=57	=57	=57	=57	=57	=57	=57	=57
*tremolo	*tremolo	*	*	*	*	*	*	*	*	*	*	*	*	*	*	*	*	*
16AA-X\LL 16Cn 16E-X	8ccn\L 8aa-X	2ryy	f	1ryy	.	.	1ryy	.	.	1ryy	.	.	1ryy	.	.	1A-X	-sły-	.
!	!	!	!	!	!	!	!	!	!	!	!	!	!	!	!	!	!	!LO:PB:g=original
16A-X\	.	.	.	.	.	.	.	.	.	.	.	.	.	.	.	.	.	.
16AA-\ 16C 16E-	8cc\	.	.	.	.	.	.	.	.	.	.	.	.	.	.	.	.	.
16A-\	.	.	.	.	.	.	.	.	.	.	.	.	.	.	.	.	.	.
16AA-\ 16C 16E-	8aa-\	.	.	.	.	.	.	.	.	.	.	.	.	.	.	.	.	.
16A-\	.	.	.	.	.	.	.	.	.	.	.	.	.	.	.	.	.	.
16AA-\ 16C 16E-	8ee-X\J	.	.	.	.	.	.	.	.	.	.	.	.	.	.	.	.	.
16A-\JJ	.	.	.	.	.	.	.	.	.	.	.	.	.	.	.	.	.	.
16AA-\LL 16C 16E-	8cc/L	4cc\	.	.	.	.	.	.	.	.	.	.	.	.	.	.	.	.
16A-\	.	.	.	.	.	.	.	.	.	.	.	.	.	.	.	.	.	.
16AA-\ 16C 16E-	8a-X/	.	.	.	.	.	.	.	.	.	.	.	.	.	.	.	.	.
16A-\	.	.	.	.	.	.	.	.	.	.	.	.	.	.	.	.	.	.
16AA-\ 16C 16E-	8e-X/	4ryy	.	.	.	.	.	.	.	.	.	.	.	.	.	.	.	.
16A-\	.	.	.	.	.	.	.	.	.	.	.	.	.	.	.	.	.	.
16AA-\ 16C 16E-	8cn/J	.	.	.	.	.	.	.	.	.	.	.	.	.	.	.	.	.
!	!	!LO:PB:g=original	!	!	!	!	!	!	!	!	!	!	!	!	!	!	!	!
16A-\JJ	.	.	.	.	.	.	.	.	.	.	.	.	.	.	.	.	.	.
!LO:PB:g=original	!	!	!	!	!	!	!	!	!	!	!	!	!	!	!	!	!	!
*	*v	*v	*	*	*	*	*	*	*	*	*	*	*	*	*	*	*	*
=58	=58	=58	=58	=58	=58	=58	=58	=58	=58	=58	=58	=58	=58	=58	=58	=58	=58
*	*	*	*	*	*	*	*	*	*	*	*	*	*	*	*xywh-#31:173,231,1917,258	*	*
*xywh-#31:175,421,1950,394	*xywh-#31:175,421,1950,394	*	*	*	*	*	*	*	*	*	*	*	*	*	*	*	*
4AA-X\ 4A-X	16e-X/LL 16ccn	.	1ryy	.	.	1ryy	.	.	1ryy	.	.	1ryy	.	.	2A-X\	-nie!	.
.	16cn/	.	.	.	.	.	.	.	.	.	.	.	.	.	.	.	.
.	16e-/ 16cc	.	.	.	.	.	.	.	.	.	.	.	.	.	.	.	.
.	16c/JJ	.	.	.	.	.	.	.	.	.	.	.	.	.	.	.	.
4ryy	8e-/ 8cc	.	.	.	.	.	.	.	.	.	.	.	.	.	.	.	.
.	8r	.	.	.	.	.	.	.	.	.	.	.	.	.	.	.	.
2GG/ 2G	16e-/LL 16cc	.	.	.	.	.	.	.	.	.	.	.	.	.	4r	.	.
.	16c/	.	.	.	.	.	.	.	.	.	.	.	.	.	.	.	.
.	16e-/ 16cc	.	.	.	.	.	.	.	.	.	.	.	.	.	.	.	.
.	16c/JJ	.	.	.	.	.	.	.	.	.	.	.	.	.	.	.	.
.	8e-/ 8cc	.	.	.	.	.	.	.	.	.	.	.	.	.	8.A-\	Je-	.
.	8r	.	.	.	.	.	.	.	.	.	.	.	.	.	.	.	.
.	.	.	.	.	.	.	.	.	.	.	.	.	.	.	16A-\	-go	.
=59	=59	=59	=59	=59	=59	=59	=59	=59	=59	=59	=59	=59	=59	=59	=59	=59	=59
16FF#X/LL	8e-X/ 8ccn	f	1ryy	.	.	1ryy	.	.	1ryy	.	.	1ryy	.	.	2.An\	krwią	.
16F#X/	.	.	.	.	.	.	.	.	.	.	.	.	.	.	.	.	.
16FF#/	8cc\L	.	.	.	.	.	.	.	.	.	.	.	.	.	.	.	.
16F#/	.	.	.	.	.	.	.	.	.	.	.	.	.	.	.	.	.
16FF#/	8aan\	.	.	.	.	.	.	.	.	.	.	.	.	.	.	.	.
16F#/	.	.	.	.	.	.	.	.	.	.	.	.	.	.	.	.	.
16FF#/	8ee-X\J	.	.	.	.	.	.	.	.	.	.	.	.	.	.	.	.
16F#/JJ	.	.	.	.	.	.	.	.	.	.	.	.	.	.	.	.	.
16FF#/LL	8cc/L	.	.	.	.	.	.	.	.	.	.	.	.	.	.	.	.
16F#/	.	.	.	.	.	.	.	.	.	.	.	.	.	.	.	.	.
16FF#/	8an/	.	.	.	.	.	.	.	.	.	.	.	.	.	.	.	.
16F#/	.	.	.	.	.	.	.	.	.	.	.	.	.	.	.	.	.
16FF#/	8e-X/	.	.	.	.	.	.	.	.	.	.	.	.	.	4A\	żyz-	.
16F#/	.	.	.	.	.	.	.	.	.	.	.	.	.	.	.	.	.
16FF#/	8cn/J	.	.	.	.	.	.	.	.	.	.	.	.	.	.	.	.
16F#/JJ	.	.	.	.	.	.	.	.	.	.	.	.	.	.	.	.	.
=60	=60	=60	=60	=60	=60	=60	=60	=60	=60	=60	=60	=60	=60	=60	=60	=60	=60
2FF#X/ 2F#X	16d#X/LL 16ccn	sf	1ryy	.	.	1ryy	.	.	1ryy	.	.	1ryy	.	.	2.A\	-ną	.
.	16cn/	.	.	.	.	.	.	.	.	.	.	.	.	.	.	.	.
.	16d#/ 16cc	.	.	.	.	.	.	.	.	.	.	.	.	.	.	.	.
.	16c/JJ	.	.	.	.	.	.	.	.	.	.	.	.	.	.	.	.
.	8d#/ 8cc	.	.	.	.	.	.	.	.	.	.	.	.	.	.	.	.
.	8r	.	.	.	.	.	.	.	.	.	.	.	.	.	.	.	.
2FFn/ 2Fn	16d#/LL 16cc	.	.	.	.	.	.	.	.	.	.	.	.	.	.	.	.
.	16c/	.	.	.	.	.	.	.	.	.	.	.	.	.	.	.	.
.	16d#/ 16cc	.	.	.	.	.	.	.	.	.	.	.	.	.	.	.	.
.	16c/JJ	.	.	.	.	.	.	.	.	.	.	.	.	.	.	.	.
.	8d#/ 8cc	.	.	.	.	.	.	.	.	.	.	.	.	.	8.A\	nie-	.
.	8r	.	.	.	.	.	.	.	.	.	.	.	.	.	.	.	.
.	.	.	.	.	.	.	.	.	.	.	.	.	.	.	16A\	-chaj	.
=61	=61	=61	=61	=61	=61	=61	=61	=61	=61	=61	=61	=61	=61	=61	=61	=61	=61
16EEn/LL 16AA 16Cn	8e\L 8ccn	.	1ryy	.	.	1ryy	.	.	1ryy	.	.	1ryy	.	.	[2A\	Wia-	.
16En/	.	.	.	.	.	.	.	.	.	.	.	.	.	.	.	.	.
16EE/ 16AA 16C	8cc\	.	.	.	.	.	.	.	.	.	.	.	.	.	.	.	.
16E/	.	.	.	.	.	.	.	.	.	.	.	.	.	.	.	.	.
16EE/ 16AA 16C	8aa\	.	.	.	.	.	.	.	.	.	.	.	.	.	.	.	.
16E/	.	.	.	.	.	.	.	.	.	.	.	.	.	.	.	.	.
16EE/ 16AA 16C	8ee\J	.	.	.	.	.	.	.	.	.	.	.	.	.	.	.	.
16E/JJ	.	.	.	.	.	.	.	.	.	.	.	.	.	.	.	.	.
16EE/LL 16AA 16C	8cc/L	.	.	.	.	.	.	.	.	.	.	.	.	.	4A\]	.	.
16E/	.	.	.	.	.	.	.	.	.	.	.	.	.	.	.	.	.
16EE/ 16AA 16C	8a/	.	.	.	.	.	.	.	.	.	.	.	.	.	.	.	.
16E/	.	.	.	.	.	.	.	.	.	.	.	.	.	.	.	.	.
16EE/ 16AA 16C	8e/	.	.	.	.	.	.	.	.	.	.	.	.	.	4B\	-ra	.
!	!	!	!	!	!	!	!	!	!	!	!	!	!	!	!	!LO:LB:g=original	!
16E/	.	.	.	.	.	.	.	.	.	.	.	.	.	.	.	.	.
16EE/ 16AA 16C	8cn/J	.	.	.	.	.	.	.	.	.	.	.	.	.	.	.	.
!	!	!LO:LB:g=original	!	!	!	!	!	!	!	!	!	!	!	!	!	!	!
16E/JJ	.	.	.	.	.	.	.	.	.	.	.	.	.	.	.	.	.
!LO:LB:g=original	!	!	!	!	!	!	!	!	!	!	!	!	!	!	!	!	!
=62	=62	=62	=62	=62	=62	=62	=62	=62	=62	=62	=62	=62	=62	=62	=62	=62	=62
*	*	*	*	*	*	*	*	*	*	*	*	*	*	*	*xywh-#31:151,836,2031,226	*	*
*xywh-#31:167,1019,1940,415	*xywh-#31:167,1019,1940,415	*	*	*	*	*	*	*	*	*	*	*	*	*	*	*	*
2EE/ 2E	16e/LL 16ccn	sf	1ryy	.	.	1ryy	.	.	1ryy	.	.	1ryy	.	.	2A\	świę-	.
.	16cn/	.	.	.	.	.	.	.	.	.	.	.	.	.	.	.	.
.	16e/ 16cc	.	.	.	.	.	.	.	.	.	.	.	.	.	.	.	.
.	16c/JJ	.	.	.	.	.	.	.	.	.	.	.	.	.	.	.	.
.	8e/ 8cc	.	.	.	.	.	.	.	.	.	.	.	.	.	.	.	.
.	8r	.	.	.	.	.	.	.	.	.	.	.	.	.	.	.	.
2EE/ 2E	16d/LL 16g#X 16b-X	sf	.	.	.	.	.	.	.	.	.	.	.	.	2G#X\	-ta	.
.	16B-X/	.	.	.	.	.	.	.	.	.	.	.	.	.	.	.	.
.	16d/ 16g# 16b-	.	.	.	.	.	.	.	.	.	.	.	.	.	.	.	.
.	16B-/JJ	.	.	.	.	.	.	.	.	.	.	.	.	.	.	.	.
.	8d/ 8g# 8b-	.	.	.	.	.	.	.	.	.	.	.	.	.	.	.	.
.	8r	.	.	.	.	.	.	.	.	.	.	.	.	.	.	.	.
=63	=63	=63	=63	=63	=63	=63	=63	=63	=63	=63	=63	=63	=63	=63	=63	=63	=63
16EE/LL	8c#X/ 8gn 8b-X	.	1ryy	.	.	1ryy	.	.	1ryy	.	.	1ryy	.	.	4.Gn^\	Ca-	.
16E/	.	.	.	.	.	.	.	.	.	.	.	.	.	.	.	.	.
16EE/	8b-\L	.	.	.	.	.	.	.	.	.	.	.	.	.	.	.	.
16E/	.	.	.	.	.	.	.	.	.	.	.	.	.	.	.	.	.
16EE/	8gg\	.	.	.	.	.	.	.	.	.	.	.	.	.	.	.	.
16E/	.	.	.	.	.	.	.	.	.	.	.	.	.	.	.	.	.
16EE/	8ee\J	.	.	.	.	.	.	.	.	.	.	.	.	.	8G\	-ły	.
16E/JJ	.	.	.	.	.	.	.	.	.	.	.	.	.	.	.	.	.
16EE/LL	8cc#X/L	.	.	.	.	.	.	.	.	.	.	.	.	.	4.G\	świat	.
16E/	.	.	.	.	.	.	.	.	.	.	.	.	.	.	.	.	.
16EE/	8b-/	.	.	.	.	.	.	.	.	.	.	.	.	.	.	.	.
16E/	.	.	.	.	.	.	.	.	.	.	.	.	.	.	.	.	.
16EE/	8g/	.	.	.	.	.	.	.	.	.	.	.	.	.	.	.	.
16E/	.	.	.	.	.	.	.	.	.	.	.	.	.	.	.	.	.
16EE/	8e/J	.	.	.	.	.	.	.	.	.	.	.	.	.	8G\	od-	.
16E/JJ	.	.	.	.	.	.	.	.	.	.	.	.	.	.	.	.	.
=64	=64	=64	=64	=64	=64	=64	=64	=64	=64	=64	=64	=64	=64	=64	=64	=64	=64
2EE^/ 2E	16Bn/LL 16c#X	.	1ryy	.	.	1ryy	.	.	1ryy	.	.	1ryy	.	.	2G\	-no-	.
.	16g/	.	.	.	.	.	.	.	.	.	.	.	.	.	.	.	.
.	16B/ 16c#	.	.	.	.	.	.	.	.	.	.	.	.	.	.	.	.
.	16g/JJ	.	.	.	.	.	.	.	.	.	.	.	.	.	.	.	.
.	8B/ 8c#	.	.	.	.	.	.	.	.	.	.	.	.	.	.	.	.
.	8r	.	.	.	.	.	.	.	.	.	.	.	.	.	.	.	.
2DD^/ 2D	16B-X/LL 16d	.	.	.	.	.	.	.	.	.	.	.	.	.	4.G\	-wił	.
.	16g/	.	.	.	.	.	.	.	.	.	.	.	.	.	.	.	.
.	16Bn/ 16d	.	.	.	.	.	.	.	.	.	.	.	.	.	.	.	.
.	16g/JJ	.	.	.	.	.	.	.	.	.	.	.	.	.	.	.	.
.	8B/ 8d	.	.	.	.	.	.	.	.	.	.	.	.	.	.	.	.
.	8r	.	.	.	.	.	.	.	.	.	.	.	.	.	8G\	z tą	.
=65	=65	=65	=65	=65	=65	=65	=65	=65	=65	=65	=65	=65	=65	=65	=65	=65	=65
16CC#X/LL	8B-X/ 8e 8g	.	1ryy	.	.	1ryy	.	.	1ryy	.	.	1ryy	.	.	1G	bło-	.
!	!	!	!	!	!	!	!	!	!	!	!	!	!	!	!LO:LB:g=original	!	!
16C#X/	.	.	.	.	.	.	.	.	.	.	.	.	.	.	.	.	.
16CC#/	8b-X\L	.	.	.	.	.	.	.	.	.	.	.	.	.	.	.	.
16C#/	.	.	.	.	.	.	.	.	.	.	.	.	.	.	.	.	.
16CC#/	8gg\	.	.	.	.	.	.	.	.	.	.	.	.	.	.	.	.
16C#/	.	.	.	.	.	.	.	.	.	.	.	.	.	.	.	.	.
16CC#/	8ee\J	.	.	.	.	.	.	.	.	.	.	.	.	.	.	.	.
16C#/JJ	.	.	.	.	.	.	.	.	.	.	.	.	.	.	.	.	.
16CCn/LL	8b-/L	.	.	.	.	.	.	.	.	.	.	.	.	.	.	.	.
16Cn/	.	.	.	.	.	.	.	.	.	.	.	.	.	.	.	.	.
16CC/	8g/	.	.	.	.	.	.	.	.	.	.	.	.	.	.	.	.
16C/	.	.	.	.	.	.	.	.	.	.	.	.	.	.	.	.	.
16CC/	8e/	.	.	.	.	.	.	.	.	.	.	.	.	.	.	.	.
16C/	.	.	.	.	.	.	.	.	.	.	.	.	.	.	.	.	.
16CC/	8B-/J	.	.	.	.	.	.	.	.	.	.	.	.	.	.	.	.
16C/JJ	.	.	.	.	.	.	.	.	.	.	.	.	.	.	.	.	.
!LO:LB:g=original	!LO:LB:g=original	!	!	!	!	!	!	!	!	!	!	!	!	!	!	!	!
=66	=66	=66	=66	=66	=66	=66	=66	=66	=66	=66	=66	=66	=66	=66	=66	=66	=66
*	*	*	*	*	*	*	*	*	*	*	*	*	*	*	*xywh-#31:151,1429,1967,250	*	*
*xywh-#31:170,1625,1937,438	*xywh-#31:170,1625,1937,438	*	*	*	*	*	*	*	*	*	*	*	*	*	*	*	*
2BBB^/ 2BB	16e/LL 16g	.	1ryy	.	.	1ryy	.	.	1ryy	.	.	1ryy	.	.	4G\	-gą	.
.	16G/	.	.	.	.	.	.	.	.	.	.	.	.	.	.	.	.
.	16e/ 16g	.	.	.	.	.	.	.	.	.	.	.	.	.	.	.	.
.	16G/JJ	.	.	.	.	.	.	.	.	.	.	.	.	.	.	.	.
.	8e/ 8g	.	.	.	.	.	.	.	.	.	.	.	.	.	2En\	bło-	.
.	8r	.	.	.	.	.	.	.	.	.	.	.	.	.	.	.	.
2BBB-X^/ 2BB-X	16e/LL 16g	.	.	.	.	.	.	.	.	.	.	.	.	.	.	.	.
.	16G/	.	.	.	.	.	.	.	.	.	.	.	.	.	.	.	.
.	16e/ 16g	.	.	.	.	.	.	.	.	.	.	.	.	.	.	.	.
.	16G/JJ	.	.	.	.	.	.	.	.	.	.	.	.	.	.	.	.
.	8e/ 8g	.	.	.	.	.	.	.	.	.	.	.	.	.	4D\	-gą	.
.	8r	.	.	.	.	.	.	.	.	.	.	.	.	.	.	.	.
=67	=67	=67	=67	=67	=67	=67	=67	=67	=67	=67	=67	=67	=67	=67	=67	=67	=67
1AAA 1AA	8e/ 8g	.	1ryy	.	.	1ryy	.	.	1ryy	.	.	1ryy	.	.	2.C#X/	du-	.
.	(8g\L	p	.	.	.	.	.	.	.	.	.	.	.	.	.	.	.
.	8gg\	.	.	.	.	.	.	.	.	.	.	.	.	.	.	.	.
.	8ee\J	.	.	.	.	.	.	.	.	.	.	.	.	.	.	.	.
.	8cc#X/L	.	.	.	.	.	.	.	.	.	.	.	.	.	.	.	.
.	8b-X/	.	.	.	.	.	.	.	.	.	.	.	.	.	.	.	.
.	8g/	.	.	.	.	.	.	.	.	.	.	.	.	.	(8.E\L	-szą	.
.	8e/J	.	.	.	.	.	.	.	.	.	.	.	.	.	.	.	.
.	.	.	.	.	.	.	.	.	.	.	.	.	.	.	16G\Jk)	.	.
=68	=68	=68	=68	=68	=68	=68	=68	=68	=68	=68	=68	=68	=68	=68	=68	=68	=68
!	!	!	!	!	!	!	!	!	!	!	!	!	!	!	!LO:TX:a:t=rall.	!	!
2.AAA/ 2.AA	8d/L	.	1ryy	.	.	1ryy	.	.	1ryy	.	.	1ryy	.	.	2.B-X\	leć-	.
.	8c#/	.	.	.	.	.	.	.	.	.	.	.	.	.	.	.	.
!	!LO:TX:b:t=perdendo.	!	!	!	!	!	!	!	!	!	!	!	!	!	!	!	!
.	8g/	.	.	.	.	.	.	.	.	.	.	.	.	.	.	.	.
.	8e/J	.	.	.	.	.	.	.	.	.	.	.	.	.	.	.	.
.	8d/L	.	.	.	.	.	.	.	.	.	.	.	.	.	.	.	.
.	8c#/	.	.	.	.	.	.	.	.	.	.	.	.	.	.	.	.
4AAA/ 4AA	8g/	.	.	.	.	.	.	.	.	.	.	.	.	.	4A\	-cie,	.
.	8e/J	.	.	.	.	.	.	.	.	.	.	.	.	.	.	.	.
=69	=69	=69	=69	=69	=69	=69	=69	=69	=69	=69	=69	=69	=69	=69	=69	=69	=69
[2AAA/ [2AA	8d/L	pp	1ryy	.	.	1ryy	.	.	1ryy	.	.	1ryy	.	.	2A\	wy	.
.	8c#/	.	.	.	.	.	.	.	.	.	.	.	.	.	.	.	.
.	8e/	.	.	.	.	.	.	.	.	.	.	.	.	.	.	.	.
.	8d/J)	.	.	.	.	.	.	.	.	.	.	.	.	.	.	.	.
4AAA/] 4AA]	4c#/	.	.	.	.	.	.	.	.	.	.	.	.	.	4r	.	.
4r	4r	.	.	.	.	.	.	.	.	.	.	.	.	.	8.A\	leć-	.
.	.	.	.	.	.	.	.	.	.	.	.	.	.	.	16A\	-cie,	.
!LO:LB:g=original	!LO:LB:g=original	!	!	!	!	!	!	!	!	!	!	!	!	!	!LO:LB:g=original	!	!
=70	=70	=70	=70	=70	=70	=70	=70	=70	=70	=70	=70	=70	=70	=70	=70	=70	=70
*	*	*	*	*	*	*	*	*	*	*	*	*	*	*	*xywh-#31:155,1996,1961,270	*	*
*xywh-#31:70,2217,2116,460	*xywh-#31:70,2217,2116,460	*	*	*	*	*	*	*	*	*	*	*	*	*	*	*	*
!	!	!	!	!	!	!	!	!	!	!	!	!	!	!	!LO:TX:a:t=a tempo	!	!
4GGG#X:/ 4GG#X:	8r	.	1ryy	.	.	1ryy	.	.	1ryy	.	.	1ryy	.	.	(2G#X\	wy	.
!	!LO:TX:b:t=a tempo	!	!	!	!	!	!	!	!	!	!	!	!	!	!	!	!
.	(8B/L 8d	.	.	.	.	.	.	.	.	.	.	.	.	.	.	.	.
4r	8d/ 8e	.	.	.	.	.	.	.	.	.	.	.	.	.	.	.	.
.	8d/J) 8e 8b	.	.	.	.	.	.	.	.	.	.	.	.	.	.	.	.
4GGGn:/ 4GGn:	8r	.	.	.	.	.	.	.	.	.	.	.	.	.	4.Gn\)	.	.
.	(8A/L 8c#	.	.	.	.	.	.	.	.	.	.	.	.	.	.	.	.
4r	8c#/ 8e	.	.	.	.	.	.	.	.	.	.	.	.	.	.	.	.
.	8c#/J) 8a	.	.	.	.	.	.	.	.	.	.	.	.	.	8G\	bliź-	.
=71	=71	=71	=71	=71	=71	=71	=71	=71	=71	=71	=71	=71	=71	=71	=71	=71	=71
(2DD/ 2FF#	8r	.	1ryy	.	.	1ryy	.	.	1ryy	.	.	1ryy	.	.	4F#\	-nię-	.
.	(8d'/L	<	.	.	.	.	.	.	.	.	.	.	.	.	.	.	.
.	8d'/ 8f#	.	.	.	.	.	.	.	.	.	.	.	.	.	4D\	-ta!	.
.	8f#'/J 8a	[	.	.	.	.	.	.	.	.	.	.	.	.	.	.	.
4DDD/)	8f#'/L 8a 8dd	>	.	.	.	.	.	.	.	.	.	.	.	.	4r	.	.
.	8f#'/ 8a	.	.	.	.	.	.	.	.	.	.	.	.	.	.	.	.
4r	8d'/ 8f#	.	.	.	.	.	.	.	.	.	.	.	.	.	8F#\	nie-	.
.	8d'/J)	]]	.	.	.	.	.	.	.	.	.	.	.	.	8F#\	-chaj	.
=72	=72	=72	=72	=72	=72	=72	=72	=72	=72	=72	=72	=72	=72	=72	=72	=72	=72
2FF#/ 2F#	8r	p	1ryy	.	.	1ryy	.	.	1ryy	.	.	1ryy	.	.	(2.F#\	Wia-	.
.	(8B/L 8d	.	.	.	.	.	.	.	.	.	.	.	.	.	.	.	.
.	8d/ 8f#	.	.	.	.	.	.	.	.	.	.	.	.	.	.	.	.
.	8d/J) 8f# 8b	.	.	.	.	.	.	.	.	.	.	.	.	.	.	.	.
2FF#/ 2F#	8r	.	.	.	.	.	.	.	.	.	.	.	.	.	.	.	.
.	(8A#X/L 8c#	.	.	.	.	.	.	.	.	.	.	.	.	.	.	.	.
.	8c#/ 8e	.	.	.	.	.	.	.	.	.	.	.	.	.	8G#X\)	.	.
.	8e/J) 8a#X	.	.	.	.	.	.	.	.	.	.	.	.	.	8A#X\	-ra	.
=73	=73	=73	=73	=73	=73	=73	=73	=73	=73	=73	=73	=73	=73	=73	=73	=73	=73
[2BBB/ [2BB	8r	.	1ryy	.	.	1ryy	.	.	1ryy	.	.	1ryy	.	.	2B\	świę-	.
.	(8d/L	<	.	.	.	.	.	.	.	.	.	.	.	.	.	.	.
.	8d/ 8f#	.	.	.	.	.	.	.	.	.	.	.	.	.	.	.	.
.	8f#/J) 8b	.	.	.	.	.	.	.	.	.	.	.	.	.	.	.	.
4BBB/] 4BB]	4f#/ 4b 4dd	[	.	.	.	.	.	.	.	.	.	.	.	.	4BB/	-ta	.
4r	4r	.	.	.	.	.	.	.	.	.	.	.	.	.	4r	.	.
=74	=74	=74	=74	=74	=74	=74	=74	=74	=74	=74	=74	=74	=74	=74	=74	=74	=74
!	!LO:TX:b:t=piu lento	!	!	!	!	!	!	!	!	!	!	!	!	!	!LO:TX:a:t=piu lento	!	!LO:DY:a
2.GG\ 2.G	2.B/ 2.d 2.g	f	1ryy	.	.	1ryy	.	.	1ryy	.	.	1ryy	.	.	(8BB\L	Ca-	f
.	.	.	.	.	.	.	.	.	.	.	.	.	.	.	8D\J)	.	.
.	.	.	.	.	.	.	.	.	.	.	.	.	.	.	(8D\L	-ły	.
.	.	.	.	.	.	.	.	.	.	.	.	.	.	.	8G\J)	.	.
.	.	.	.	.	.	.	.	.	.	.	.	.	.	.	(8G\L	świat	.
.	.	.	.	.	.	.	.	.	.	.	.	.	.	.	8B\J)	.	.
!	!	!	!	!	!	!	!	!	!	!	!	!	!	!	!	!	!LO:DY:a
4GGG/ 4GG	4B/ 4d 4g	.	.	.	.	.	.	.	.	.	.	.	.	.	(8B\L	od-	<
.	.	.	.	.	.	.	.	.	.	.	.	.	.	.	8d\J)	.	[[
!LO:LB:g=original	!LO:LB:g=original	!	!	!	!	!	!	!	!	!	!	!	!	!	!LO:LB:g=original	!	!
=75	=75	=75	=75	=75	=75	=75	=75	=75	=75	=75	=75	=75	=75	=75	=75	=75	=75
*	*	*	*	*	*	*	*	*	*	*	*	*	*	*	*xywh-#31:157,2613,1955,297	*	*
*xywh-#31:128,2826,2038,475	*xywh-#31:128,2826,2038,475	*	*	*	*	*	*	*	*	*	*	*	*	*	*	*	*
2.DD;\ 2.D	2.A;/ 2.d 2.f#	.	1ryy	.	.	1ryy	.	.	1ryy	.	.	1ryy	.	.	4A\	-no-	.
.	.	.	.	.	.	.	.	.	.	.	.	.	.	.	4A\	-wi!	.
.	.	.	.	.	.	.	.	.	.	.	.	.	.	.	4r;	.	.
4r	4r	.	.	.	.	.	.	.	.	.	.	.	.	.	4F#^\	Z tą	.
=76	=76	=76	=76	=76	=76	=76	=76	=76	=76	=76	=76	=76	=76	=76	=76	=76	=76
!	!LO:TX:b:t=a tempo	!	!	!	!	!	!	!	!	!	!	!	!	!	!LO:TX:a:t=a tempo	!	!
32DD/LLL	(([2d/ 2fn 2g#X 2b [2dd	.	1ryy	.	.	1ryy	.	.	1ryy	.	.	1ryy	.	.	(2B\	bło-	.
32D/	.	.	.	.	.	.	.	.	.	.	.	.	.	.	.	.	.
32DD/	.	.	.	.	.	.	.	.	.	.	.	.	.	.	.	.	.
32D/	.	.	.	.	.	.	.	.	.	.	.	.	.	.	.	.	.
32DD/	.	.	.	.	.	.	.	.	.	.	.	.	.	.	.	.	.
32D/	.	.	.	.	.	.	.	.	.	.	.	.	.	.	.	.	.
32DD/	.	.	.	.	.	.	.	.	.	.	.	.	.	.	.	.	.
32D/	.	.	.	.	.	.	.	.	.	.	.	.	.	.	.	.	.
32DD/	.	.	.	.	.	.	.	.	.	.	.	.	.	.	.	.	.
32D/	.	.	.	.	.	.	.	.	.	.	.	.	.	.	.	.	.
32DD/	.	.	.	.	.	.	.	.	.	.	.	.	.	.	.	.	.
32D/	.	.	.	.	.	.	.	.	.	.	.	.	.	.	.	.	.
32DD/	.	.	.	.	.	.	.	.	.	.	.	.	.	.	.	.	.
32D/	.	.	.	.	.	.	.	.	.	.	.	.	.	.	.	.	.
32DD/	.	.	.	.	.	.	.	.	.	.	.	.	.	.	.	.	.
(32D/JJJ	.	.	.	.	.	.	.	.	.	.	.	.	.	.	.	.	.
4DD/) 4D	4d/])) 4f#X 4a 4dd]	.	.	.	.	.	.	.	.	.	.	.	.	.	4.A\)	.	.
4r	4r	.	.	.	.	.	.	.	.	.	.	.	.	.	.	.	.
.	.	.	.	.	.	.	.	.	.	.	.	.	.	.	8F#\	-gą	.
=77	=77	=77	=77	=77	=77	=77	=77	=77	=77	=77	=77	=77	=77	=77	=77	=77	=77
4r	4r	.	1ryy	.	.	1ryy	.	.	1ryy	.	.	1ryy	.	.	4D\	dus-	.
*clefG2	*	*	*	*	*	*	*	*	*	*	*	*	*	*	*	*	*
(8.d/L 8.f#	(8.dd\L 8.ff#	p	.	.	.	.	.	.	.	.	.	.	.	.	4D\	-zą	.
16f#/Jk 16a	16ff#\Jk 16aa	.	.	.	.	.	.	.	.	.	.	.	.	.	.	.	.
4f#/) 4dd	4ff#\) 4ddd	.	.	.	.	.	.	.	.	.	.	.	.	.	4ryy	.	.
4r	4r	.	.	.	.	.	.	.	.	.	.	.	.	.	8.C#/	leć-	.
.	.	.	.	.	.	.	.	.	.	.	.	.	.	.	16BB/	-cie,	.
*clefF4	*	*	*	*	*	*	*	*	*	*	*	*	*	*	*	*	*
=78	=78	=78	=78	=78	=78	=78	=78	=78	=78	=78	=78	=78	=78	=78	=78	=78	=78
!	!	!	!	!	!	!	!	!	!	!	!	!	!	!	!LO:TX:a:t=espres.	!	!
2.AAA/ 2.AA	8r	.	1ryy	.	.	1ryy	.	.	1ryy	.	.	1ryy	.	.	(2AA/	wy	.
!	!LO:TX:b:t=colla voce	!	!	!	!	!	!	!	!	!	!	!	!	!	!	!	!
.	8A/L 8f# 8a	.	.	.	.	.	.	.	.	.	.	.	.	.	.	.	.
.	8A/ 8f# 8a	.	.	.	.	.	.	.	.	.	.	.	.	.	.	.	.
.	8A/J 8f# 8a	.	.	.	.	.	.	.	.	.	.	.	.	.	.	.	.
.	8d/L 8fn 8g#X	.	.	.	.	.	.	.	.	.	.	.	.	.	4BB/)	.	.
.	8d/J 8f 8g#	.	.	.	.	.	.	.	.	.	.	.	.	.	.	.	.
4AAA/ 4AA	8c#/L 8en 8gn	.	.	.	.	.	.	.	.	.	.	.	.	.	(8.E/L	bliź-	.
.	8c#/J 8e 8g	.	.	.	.	.	.	.	.	.	.	.	.	.	.	.	.
.	.	.	.	.	.	.	.	.	.	.	.	.	.	.	16D/Jk)	.	.
!LO:LB:g=original	!LO:LB:g=original	!	!	!	!	!	!	!	!	!	!	!	!	!	!LO:PB:g=original	!	!
=79	=79	=79	=79	=79	=79	=79	=79	=79	=79	=79	=79	=79	=79	=79	=79	=79	=79
*	*	*	*	*	*	*	*	*	*	*	*	*	*	*	*xywh-#32:387,152,2008,333	*	*
*	*	*	*	*	*	*	*	*	*	*	*	*xywh-#32:358,379,1990,277	*	*	*	*	*
*	*	*	*	*	*	*	*	*	*xywh-#32:387,575,1986,304	*	*	*	*	*	*	*	*
*	*	*	*	*	*	*xywh-#32:374,792,2001,272	*	*	*	*	*	*	*	*	*	*	*
*	*	*	*xywh-#32:385,981,1932,286	*	*	*	*	*	*	*	*	*	*	*	*	*	*
*xywh-#32:278,1216,2062,505	*xywh-#32:278,1216,2062,505	*	*	*	*	*	*	*	*	*	*	*	*	*	*	*	*
4DD/ 4D	8d/L 8f#	p	2r	.	.	2r	.	.	2r	.	.	2r	.	.	2D\	-nię-	.
.	[8d/	.	.	.	.	.	.	.	.	.	.	.	.	.	.	.	.
8.DD/L 8.D	[8f#/	.	.	.	.	.	.	.	.	.	.	.	.	.	.	.	.
.	[8a/J	.	.	.	.	.	.	.	.	.	.	.	.	.	.	.	.
16DD/Jk 16D	.	.	.	.	.	.	.	.	.	.	.	.	.	.	.	.	.
!	!	!	!	!	!	!	!	!	!	!	!	!LO:TX:a:t=CHÓR DUCHÓW	!	!	!	!	!
4DD/ 4D	4d/] 4f#] 4a] 4dd	.	4r	.	.	4r	.	.	4r	.	.	4r	.	.	4D\	-ta,	.
!	!	!	!	!	!	!	!	!LO:DY:a	!	!	!LO:DY:a	!	!	!LO:DY:a	!	!	!
4r	4r	.	4d\	Sła-	.	4f#\	Sła-	pp	4a/	Sła-	pp	4dd\	Sła-	pp	4r	.	.
=80	=80	=80	=80	=80	=80	=80	=80	=80	=80	=80	=80	=80	=80	=80	=80	=80	=80
1r	1r	.	2.d\	-wa	.	2.e#X\	-wa	.	2.g#X/	-wa	.	2.dd\	-wa	.	1r	.	.
.	.	.	8.d\	Woj-	.	8.e#\	Woj-	.	8.g#/	Woj-	.	8.dd\	Woj-	.	.	.	.
.	.	.	16d\	-cie-	.	16e#\	-cie-	.	16g#/	-cie-	.	16dd\	-cie-	.	.	.	.
=81	=81	=81	=81	=81	=81	=81	=81	=81	=81	=81	=81	=81	=81	=81	=81	=81	=81
1r	1r	.	2d\	-cho-	.	2f#\	-cho-	.	2a/	-cho-	.	2dd\	-cho-	.	2r	.	.
.	.	.	2D;\	-wi!	.	2d;\	-wi!	.	2f#;/	-wi!	.	2dd;\	-wi!	.	8r	.	.
.	.	.	.	.	.	.	.	.	.	.	.	.	.	.	(8D\L	leć-	.
.	.	.	.	.	.	.	.	.	.	.	.	.	.	.	8E\J)	.	.
.	.	.	.	.	.	.	.	.	.	.	.	.	.	.	8F#\	-cie,	.
=82	=82	=82	=82	=82	=82	=82	=82	=82	=82	=82	=82	=82	=82	=82	=82	=82	=82
!	!LO:TX:a:t=rall.	!	!	!	!	!	!	!	!	!	!	!	!	!	!	!	!
2AAA/ 2AA	8r	p	1r	.	.	1r	.	.	1r	.	.	1r	.	.	2AA/	wy	.
!	!LO:TX:a:t=colla voce.	!	!	!	!	!	!	!	!	!	!	!	!	!	!	!	!
.	8A/L 8f# 8a	.	.	.	.	.	.	.	.	.	.	.	.	.	.	.	.
.	8A/ 8f# 8a	.	.	.	.	.	.	.	.	.	.	.	.	.	.	.	.
.	8A/J 8f# 8a	.	.	.	.	.	.	.	.	.	.	.	.	.	.	.	.
8AAA/ 8AA	8r	.	.	.	.	.	.	.	.	.	.	.	.	.	(8BB/L	bliź-	.
8r	8d/ 8e#X 8g#X	.	.	.	.	.	.	.	.	.	.	.	.	.	8C#/J)	.	.
8AAA/ 8AA	8r	.	.	.	.	.	.	.	.	.	.	.	.	.	(8.F#\L	-nię-	.
8r	8c#/ 8en 8g#	.	.	.	.	.	.	.	.	.	.	.	.	.	.	.	.
.	.	.	.	.	.	.	.	.	.	.	.	.	.	.	16E\Jk)	.	.
=83	=83	=83	=83	=83	=83	=83	=83	=83	=83	=83	=83	=83	=83	=83	=83	=83	=83
!	!LO:TX:b:t=tempo 1o.	!	!	!	!	!	!	!	!	!	!	!	!	!	!	!	!
2DD/ 2D	8d/ 8f#	.	2r	.	.	2r	.	.	2r	.	.	2r	.	.	2D\	-ta!	.
.	8f#\L 8a	.	.	.	.	.	.	.	.	.	.	.	.	.	.	.	.
.	8g\ 8b	.	.	.	.	.	.	.	.	.	.	.	.	.	.	.	.
.	8a\J 8cc#	<	.	.	.	.	.	.	.	.	.	.	.	.	.	.	.
4r	8b\L 8dd	.	4r	.	.	4r	.	.	4r	.	.	4r	.	.	2r	.	.
!	!	!	!	!	!	!	!	!	!	!	!	!	!	!	!LO:LB:g=original	!	!
.	8cc#\J 8ee	[	.	.	.	.	.	.	.	.	.	.	.	.	.	.	.
!	!	!	!	!	!LO:DY:a	!	!	!LO:DY:a	!	!	!LO:DY:a	!	!	!LO:DY:a	!	!	!
8.D\L 8.d	8.dd\L 8.ff#	f	8.d\	Bo-	f	8.f#\	Bo-	f	8.dd\	Bo-	f	8.ff#\	Bo-	f	.	.	.
16D\Jk 16d	16dd\Jk 16ff#	.	16d\	-gu	.	16f#\	-gu	.	16dd\	-gu	.	16ff#\	-gu	.	.	.	.
!LO:LB:g=original	!LO:LB:g=original	!	!	!LO:LB:g=original	!	!	!LO:LB:g=original	!	!	!LO:LB:g=original	!	!	!LO:LB:g=original	!	!	!	!
=84	=84	=84	=84	=84	=84	=84	=84	=84	=84	=84	=84	=84	=84	=84	=84	=84	=84
*	*	*	*	*	*	*	*	*	*	*	*	*	*	*	*xywh-#32:324,1655,1958,257	*	*
*	*	*	*	*	*	*	*	*	*	*	*	*xywh-#32:334,1859,1993,296	*	*	*	*	*
*	*	*	*	*	*	*	*	*	*xywh-#32:331,2086,1939,269	*	*	*	*	*	*	*	*
*	*	*	*	*	*	*xywh-#32:392,2270,1872,304	*	*	*	*	*	*	*	*	*	*	*
*	*	*	*xywh-#32:315,2470,2018,293	*	*	*	*	*	*	*	*	*	*	*	*	*	*
*xywh-#32:324,2675,1975,557	*xywh-#32:324,2675,1975,557	*	*	*	*	*	*	*	*	*	*	*	*	*	*	*	*
2.D\ 2.d	2.f#\ 2.dd 2.ff#	ff	([2d\	cześć	.	2.f#\	cześć	.	2.dd\	cześć	.	2.ff#\	cześć	.	1r	.	.
.	.	.	8d\L]	.	.	.	.	.	.	.	.	.	.	.	.	.	.
.	.	.	8c#\J)	.	.	.	.	.	.	.	.	.	.	.	.	.	.
8.BB\L 8.B	8.f#\L 8.dd 8.ff#	.	8.B\	Bo-	.	8.f#\	Bo-	.	8.dd\	Bo-	.	8.ff#\	Bo-	.	.	.	.
16BB\Jk 16B	16f#\Jk 16dd 16ff#	.	16B\	-gu	.	16d\	-gu	.	16b\	-gu	.	16ff#\	-gu	.	.	.	.
=85	=85	=85	=85	=85	=85	=85	=85	=85	=85	=85	=85	=85	=85	=85	=85	=85	=85
!	!	!	!	!	!LO:DY:a	!	!	!LO:DY:a	!	!	!LO:DY:a	!	!	!LO:DY:a	!	!	!
2.FF#;\ 2.F#	2.f#;\ 2.a#X 2.cc# 2.ff#	.	2.F#;\	cześć!	f	2.c#;\	cześć!	f	2.a#X;/	cześć!	f	2.ff#;\	cześć!	f	1r	.	.
!	!	!	!	!	!LO:DY:a	!	!	!LO:DY:a	!LO:TX:a:t=rytm	!	!LO:DY:a	!	!	!LO:DY:a	!	!	!
(8EE\L 8E	(8b\L 8gg	.	8E\	Sła-	p	8.e\	Sła-	p	8.b\	Sła-	p	8.gg\	Sła-	p	.	.	.
8GG\J) 8G	8g\J) 8ee	.	8G\	-wa	.	.	.	.	.	.	.	.	.	.	.	.	.
.	.	.	.	.	.	16e\	-wa	.	16g/	-wa	.	16ee\	-wa	.	.	.	.
=86	=86	=86	=86	=86	=86	=86	=86	=86	=86	=86	=86	=86	=86	=86	=86	=86	=86
(8AA\L 8A	4e/ 4cc#	.	(8A\L	sła-	.	4e\	sła-	.	4e/	sła-	.	4cc#\	sła-	.	1r	.	.
8GG\J) 8G	.	.	8G\J)	.	.	.	.	.	.	.	.	.	.	.	.	.	.
2FF#/ 2F#	2f#/ 2a 2dd	.	2F#\	-wa	.	2d\	-wa	.	2a/	-wa	.	2dd\	-wa	.	.	.	.
4GG/ 4G	8e/L 8b	.	8.G\	Woj-	.	8.e\	Woj-	.	8.g/	Woj-	.	8.b\	Woj-	.	.	.	.
.	8ee/J	.	.	.	.	.	.	.	.	.	.	.	.	.	.	.	.
.	.	.	16G\	-cie-	.	16e\	-cie-	.	16b/	-cie-	.	16ee\	-cie-	.	.	.	.
=87	=87	=87	=87	=87	=87	=87	=87	=87	=87	=87	=87	=87	=87	=87	=87	=87	=87
4AA/ 4A	4e/ 4cc#	<	4A\	-cho-	.	4A\	-cho-	.	4a/	-cho-	.	4.cc#\	-cho-	.	1r	.	.
8EE/L 8E	4e/ 4a 4cc# 4ee	.	4A\	-wi	.	4c#\	-wi	.	4a/	-wi	.	.	.	.	.	.	.
8CC#/J 8C#	.	.	.	.	.	.	.	.	.	.	.	8a\	-wi	.	.	.	.
4.AAA/ 4.AA	4.a\ 4.cc# 4.ee 4.aa	[	4.A\	Woj-	.	4.e\	Woj-	.	4.cc#\	Woj-	.	4.ee\ 4.aa	Woj-	.	.	.	.
8AAA/ 8AA	8a\ 8cc# 8ee 8aa	.	8A\	-cie-	.	8f#\	-cie-	.	8cc#\	-cie-	.	8ee\ 8aa	-cie-	.	.	.	.
=88	=88	=88	=88	=88	=88	=88	=88	=88	=88	=88	=88	=88	=88	=88	=88	=88	=88
!	!LO:TX:b:t=tremolo.	!	!	!	!LO:DY:a	!	!	!LO:DY:a	!	!	!LO:DY:a	!	!	!LO:DY:a	!	!	!
32DD/LLL	1d 1f# 1a 1dd	ff	1D	-cho	ff	1f#	-cho	ff	1dd	-cho	ff	1dd	-cho	ff	1r	.	.
32D/	.	.	.	.	.	.	.	.	.	.	.	.	.	.	.	.	.
32DD/	.	.	.	.	.	.	.	.	.	.	.	.	.	.	.	.	.
32D/	.	.	.	.	.	.	.	.	.	.	.	.	.	.	.	.	.
32DD/	.	.	.	.	.	.	.	.	.	.	.	.	.	.	.	.	.
32D/	.	.	.	.	.	.	.	.	.	.	.	.	.	.	.	.	.
32DD/	.	.	.	.	.	.	.	.	.	.	.	.	.	.	.	.	.
32D/	.	.	.	.	.	.	.	.	.	.	.	.	.	.	.	.	.
32DD/	.	.	.	.	.	.	.	.	.	.	.	.	.	.	.	.	.
32D/	.	.	.	.	.	.	.	.	.	.	.	.	.	.	.	.	.
32DD/	.	.	.	.	.	.	.	.	.	.	.	.	.	.	.	.	.
32D/	.	.	.	.	.	.	.	.	.	.	.	.	.	.	.	.	.
32DD/	.	.	.	.	.	.	.	.	.	.	.	.	.	.	.	.	.
32D/	.	.	.	.	.	.	.	.	.	.	.	.	.	.	.	.	.
32DD/	.	.	.	.	.	.	.	.	.	.	.	.	.	.	.	.	.
32D/JJJ	.	.	.	.	.	.	.	.	.	.	.	.	.	.	.	.	.
32DD/LLL	.	.	.	.	.	.	.	.	.	.	.	.	.	.	.	.	.
32D/	.	.	.	.	.	.	.	.	.	.	.	.	.	.	.	.	.
32DD/	.	.	.	.	.	.	.	.	.	.	.	.	.	.	.	.	.
32D/	.	.	.	.	.	.	.	.	.	.	.	.	.	.	.	.	.
32DD/	.	.	.	.	.	.	.	.	.	.	.	.	.	.	.	.	.
32D/	.	.	.	.	.	.	.	.	.	.	.	.	.	.	.	.	.
32DD/	.	.	.	.	.	.	.	.	.	.	.	.	.	.	.	.	.
32D/	.	.	.	.	.	.	.	.	.	.	.	.	.	.	.	.	.
32DD/	.	.	.	.	.	.	.	.	.	.	.	.	.	.	.	.	.
32D/	.	.	.	.	.	.	.	.	.	.	.	.	.	.	.	.	.
32DD/	.	.	.	.	.	.	.	.	.	.	.	.	.	.	.	.	.
32D/	.	.	.	.	.	.	.	.	.	.	.	.	.	.	.	.	.
32DD/	.	.	.	.	.	.	.	.	.	.	.	.	.	.	.	.	.
32D/	.	.	.	.	.	.	.	.	.	.	.	.	.	.	.	.	.
32DD/	.	.	.	.	.	.	.	.	.	.	.	.	.	.	.	.	.
32D/JJJ	.	.	.	.	.	.	.	.	.	.	.	.	.	.	.	.	.
==	==	==	==	==	==	==	==	==	==	==	==	==	==	==	==	==	==
*-	*-	*-	*-	*-	*-	*-	*-	*-	*-	*-	*-	*-	*-	*-	*-	*-	*-
!!!system-decoration: s1,s2,s3,s4,s5[(s6,s7)]
!!!ENC: Andrzej Gręziak
!!!END: 2022-02-20
!!!ENC: Julita Ruszuk
!!!END: 2022-02-28
!!!ENC-iiif: Bartosz Żurakowski
!!!END-iiif: 2022-09-04
!!!YEC: Copyright 2022 Narodowy Instytut Fryderyka Chopina (https://polishscores.org)
!!!YEM: License CC-BY-4.0 (https://creativecommons.org/licenses/by/4.0)
